(Exported by FreeCAD)
(Post Processor: linuxcnc_post)
(Output Time:2018-07-04 14:42:20.147000)
(begin preamble)
G17 G54 G40 G49 G80 G90
G21
(begin operation: T1: mymill)
(machine: not set, mm/min)
(T1: mymill)
M6 T1
M3 S0
(finish operation: T1: mymill)
(begin operation: Profile_Edges)
(machine: not set, mm/min)
(Profile_Edges)
(Compensated Tool Path. Diameter: 5.0)
G0 Z35.000
G0 X76.721 Y76.721
G0 Z33.000
G1 X76.721 Y76.721 Z27.000 F3000.000
G2 X5.775 Y-108.346 Z27.000 I-76.721 J-76.721 F9000.000
G2 X-5.775 Y108.346 Z27.000 I-5.775 J108.346 F9000.000
G2 X76.721 Y76.721 Z27.000 I5.775 J-108.346 F9000.000
G1 X76.721 Y76.721 Z24.000 F3000.000
G2 X5.775 Y-108.346 Z24.000 I-76.721 J-76.721 F9000.000
G2 X-5.775 Y108.346 Z24.000 I-5.775 J108.346 F9000.000
G2 X76.721 Y76.721 Z24.000 I5.775 J-108.346 F9000.000
G1 X76.721 Y76.721 Z21.000 F3000.000
G2 X5.775 Y-108.346 Z21.000 I-76.721 J-76.721 F9000.000
G2 X-5.775 Y108.346 Z21.000 I-5.775 J108.346 F9000.000
G2 X76.721 Y76.721 Z21.000 I5.775 J-108.346 F9000.000
G1 X76.721 Y76.721 Z18.000 F3000.000
G2 X5.775 Y-108.346 Z18.000 I-76.721 J-76.721 F9000.000
G2 X-5.775 Y108.346 Z18.000 I-5.775 J108.346 F9000.000
G2 X76.721 Y76.721 Z18.000 I5.775 J-108.346 F9000.000
G1 X76.721 Y76.721 Z15.000 F3000.000
G2 X5.775 Y-108.346 Z15.000 I-76.721 J-76.721 F9000.000
G2 X-5.775 Y108.346 Z15.000 I-5.775 J108.346 F9000.000
G2 X76.721 Y76.721 Z15.000 I5.775 J-108.346 F9000.000
G1 X76.721 Y76.721 Z12.000 F3000.000
G2 X5.775 Y-108.346 Z12.000 I-76.721 J-76.721 F9000.000
G2 X-5.775 Y108.346 Z12.000 I-5.775 J108.346 F9000.000
G2 X76.721 Y76.721 Z12.000 I5.775 J-108.346 F9000.000
G1 X76.721 Y76.721 Z10.000 F3000.000
G2 X5.775 Y-108.346 Z10.000 I-76.721 J-76.721 F9000.000
G2 X-5.775 Y108.346 Z10.000 I-5.775 J108.346 F9000.000
G2 X76.721 Y76.721 Z10.000 I5.775 J-108.346 F9000.000
G0 Z35.000
(finish operation: Profile_Edges)
(begin operation: T1: mymill)
(machine: not set, mm/min)
(T1: mymill)
M6 T1
M3 S0
(finish operation: T1: mymill)
(begin operation: Profile_Edges001)
(machine: not set, mm/min)
(Profile_Edges001)
(Compensated Tool Path. Diameter: 5.0)
G0 Z35.000
G0 X33.587 Y91.587
G0 Z33.000
G1 X33.587 Y91.587 Z27.000 F3000.000
G2 X3.035 Y10.598 Z27.000 I-33.587 J-33.587 F9000.000
G2 X-47.402 Y54.965 Z27.000 I-3.035 J47.402 F9000.000
G2 X-3.035 Y105.402 Z27.000 I47.402 J3.035 F9000.000
G2 X33.587 Y91.587 Z27.000 I3.035 J-47.402 F9000.000
G1 X33.587 Y91.587 Z24.000 F3000.000
G2 X3.035 Y10.598 Z24.000 I-33.587 J-33.587 F9000.000
G2 X-47.402 Y54.965 Z24.000 I-3.035 J47.402 F9000.000
G2 X-3.035 Y105.402 Z24.000 I47.402 J3.035 F9000.000
G2 X33.587 Y91.587 Z24.000 I3.035 J-47.402 F9000.000
G1 X33.587 Y91.587 Z21.000 F3000.000
G2 X3.035 Y10.598 Z21.000 I-33.587 J-33.587 F9000.000
G2 X-47.402 Y54.965 Z21.000 I-3.035 J47.402 F9000.000
G2 X-3.035 Y105.402 Z21.000 I47.402 J3.035 F9000.000
G2 X33.587 Y91.587 Z21.000 I3.035 J-47.402 F9000.000
G1 X33.587 Y91.587 Z18.000 F3000.000
G2 X3.035 Y10.598 Z18.000 I-33.587 J-33.587 F9000.000
G2 X-47.402 Y54.965 Z18.000 I-3.035 J47.402 F9000.000
G2 X-3.035 Y105.402 Z18.000 I47.402 J3.035 F9000.000
G2 X33.587 Y91.587 Z18.000 I3.035 J-47.402 F9000.000
G1 X33.587 Y91.587 Z15.000 F3000.000
G2 X3.035 Y10.598 Z15.000 I-33.587 J-33.587 F9000.000
G2 X-47.402 Y54.965 Z15.000 I-3.035 J47.402 F9000.000
G2 X-3.035 Y105.402 Z15.000 I47.402 J3.035 F9000.000
G2 X33.587 Y91.587 Z15.000 I3.035 J-47.402 F9000.000
G1 X33.587 Y91.587 Z12.000 F3000.000
G2 X3.035 Y10.598 Z12.000 I-33.587 J-33.587 F9000.000
G2 X-47.402 Y54.965 Z12.000 I-3.035 J47.402 F9000.000
G2 X-3.035 Y105.402 Z12.000 I47.402 J3.035 F9000.000
G2 X33.587 Y91.587 Z12.000 I3.035 J-47.402 F9000.000
G1 X33.587 Y91.587 Z10.000 F3000.000
G2 X3.035 Y10.598 Z10.000 I-33.587 J-33.587 F9000.000
G2 X-47.402 Y54.965 Z10.000 I-3.035 J47.402 F9000.000
G2 X-3.035 Y105.402 Z10.000 I47.402 J3.035 F9000.000
G2 X33.587 Y91.587 Z10.000 I3.035 J-47.402 F9000.000
G0 Z35.000
(finish operation: Profile_Edges001)
(begin operation: T1: mymill)
(machine: not set, mm/min)
(T1: mymill)
M6 T1
M3 S0
(finish operation: T1: mymill)
(begin operation: Pocket_Shape)
(machine: not set, mm/min)
(Pocket_Shape)
G0 Z35.000
G0 X38.043 Y29.571
G0 Z33.000
G1 X38.043 Y29.571 Z27.000 F3000.000
G1 X80.833 Y72.362 Z27.000 F9000.000
G1 X79.996 Y73.293 Z27.000 F9000.000
G1 X41.359 Y34.655 Z27.000 F9000.000
G3 X43.197 Y38.261 Z27.000 I-35.451 J20.343 F9000.000
G1 X79.144 Y74.208 Z27.000 F9000.000
G1 X78.283 Y75.115 Z27.000 F9000.000
G1 X44.451 Y41.283 Z27.000 F9000.000
G3 X45.378 Y43.978 Z27.000 I-32.308 J12.622 F9000.000
G1 X77.414 Y76.014 Z27.000 F9000.000
G1 X76.530 Y76.898 Z27.000 F9000.000
G1 X46.066 Y46.433 Z27.000 F9000.000
G3 X46.574 Y48.709 Z27.000 I-27.723 J7.385 F9000.000
G1 X75.645 Y77.781 Z27.000 F9000.000
G1 X74.738 Y78.641 Z27.000 F9000.000
G1 X46.950 Y50.853 Z27.000 F9000.000
G3 X47.214 Y52.885 Z27.000 I-24.768 J4.256 F9000.000
G1 X73.830 Y79.501 Z27.000 F9000.000
G3 X72.906 Y80.344 Z27.000 I-16.288 J-16.945 F9000.000
G1 X47.384 Y54.823 Z27.000 F9000.000
G3 X47.473 Y56.679 Z27.000 I-22.803 J2.021 F9000.000
G1 X71.975 Y81.181 Z27.000 F9000.000
G3 X71.033 Y82.007 Z27.000 I-15.989 J-17.260 F9000.000
G1 X47.491 Y58.465 Z27.000 F9000.000
G3 X47.446 Y60.188 Z27.000 I-22.231 J0.289 F9000.000
G1 X70.079 Y82.820 Z27.000 F9000.000
G3 X69.121 Y83.630 Z27.000 I-15.688 J-17.578 F9000.000
G1 X47.342 Y61.851 Z27.000 F9000.000
G3 X47.178 Y63.456 Z27.000 I-21.703 J-1.400 F9000.000
G1 X68.143 Y84.420 Z27.000 F9000.000
G1 X67.164 Y85.209 Z27.000 F9000.000
G1 X46.969 Y65.014 Z27.000 F9000.000
G3 X46.719 Y66.532 Z27.000 I-18.891 J-2.338 F9000.000
G1 X66.166 Y85.979 Z27.000 F9000.000
G1 X65.164 Y86.744 Z27.000 F9000.000
G1 X46.431 Y68.011 Z27.000 F9000.000
G1 X46.095 Y69.443 Z27.000 F9000.000
G1 X64.148 Y87.497 Z27.000 F9000.000
G1 X63.122 Y88.238 Z27.000 F9000.000
G1 X45.722 Y70.838 Z27.000 F9000.000
G3 X45.319 Y72.203 Z27.000 I-17.172 J-4.325 F9000.000
G1 X62.089 Y88.973 Z27.000 F9000.000
G1 X61.039 Y89.691 Z27.000 F9000.000
G1 X44.886 Y73.537 Z27.000 F9000.000
G3 X44.409 Y74.829 Z27.000 I-18.549 J-6.108 F9000.000
G1 X59.988 Y90.408 Z27.000 F9000.000
G3 X58.913 Y91.101 Z27.000 I-13.547 J-19.832 F9000.000
G1 X43.909 Y76.096 Z27.000 F9000.000
G3 X43.385 Y77.340 Z27.000 I-30.853 J-12.267 F9000.000
G1 X57.838 Y91.793 Z27.000 F9000.000
G3 X56.745 Y92.468 Z27.000 I-13.212 J-20.188 F9000.000
G1 X42.819 Y78.542 Z27.000 F9000.000
G3 X42.232 Y79.723 Z27.000 I-14.963 J-6.703 F9000.000
G1 X55.645 Y93.136 Z27.000 F9000.000
G3 X54.533 Y93.792 Z27.000 I-12.868 J-20.552 F9000.000
G1 X41.625 Y80.883 Z27.000 F9000.000
G3 X40.978 Y82.004 Z27.000 I-35.987 J-20.010 F9000.000
G1 X53.408 Y94.435 Z27.000 F9000.000
G3 X52.277 Y95.071 Z27.000 I-12.512 J-20.927 F9000.000
G1 X40.313 Y83.107 Z27.000 F9000.000
G1 X39.627 Y84.188 Z27.000 F9000.000
G1 X51.127 Y95.688 Z27.000 F9000.000
G3 X49.975 Y96.304 Z27.000 I-12.145 J-21.314 F9000.000
G1 X38.905 Y85.235 Z27.000 F9000.000
G3 X38.167 Y86.265 Z27.000 I-13.248 J-8.712 F9000.000
G1 X48.799 Y96.896 Z27.000 F9000.000
G1 X47.622 Y97.487 Z27.000 F9000.000
G1 X37.405 Y87.269 Z27.000 F9000.000
G3 X36.613 Y88.246 Z27.000 I-12.758 J-9.536 F9000.000
G1 X46.424 Y98.056 Z27.000 F9000.000
G1 X45.221 Y98.622 Z27.000 F9000.000
G1 X35.806 Y89.206 Z27.000 F9000.000
G1 X34.968 Y90.137 Z27.000 F9000.000
G1 X44.000 Y99.168 Z27.000 F9000.000
G1 X42.771 Y99.707 Z27.000 F9000.000
G1 X34.109 Y91.045 Z27.000 F9000.000
G3 X33.234 Y91.938 Z27.000 I-28.890 J-27.441 F9000.000
G1 X41.527 Y100.231 Z27.000 F9000.000
G1 X40.270 Y100.741 Z27.000 F9000.000
G1 X32.323 Y92.794 Z27.000 F9000.000
G3 X31.396 Y93.635 Z27.000 I-10.949 J-11.137 F9000.000
G1 X39.002 Y101.241 Z27.000 F9000.000
G1 X37.717 Y101.724 Z27.000 F9000.000
G1 X30.447 Y94.454 Z27.000 F9000.000
G3 X29.467 Y95.242 Z27.000 I-10.616 J-12.189 F9000.000
G1 X36.424 Y102.198 Z27.000 F9000.000
G1 X35.110 Y102.652 Z27.000 F9000.000
G1 X28.472 Y96.015 Z27.000 F9000.000
G1 X27.448 Y96.759 Z27.000 F9000.000
G1 X33.790 Y103.100 Z27.000 F9000.000
G1 X32.447 Y103.525 Z27.000 F9000.000
G1 X26.399 Y97.477 Z27.000 F9000.000
G3 X25.333 Y98.178 Z27.000 I-9.886 J-13.867 F9000.000
G1 X31.099 Y103.945 Z27.000 F9000.000
G1 X29.725 Y104.339 Z27.000 F9000.000
G1 X24.232 Y98.845 Z27.000 F9000.000
G3 X23.108 Y99.490 Z27.000 I-8.580 J-13.654 F9000.000
G1 X28.347 Y104.729 Z27.000 F9000.000
G1 X26.942 Y105.092 Z27.000 F9000.000
G1 X21.966 Y100.115 Z27.000 F9000.000
G3 X20.785 Y100.702 Z27.000 I-56.600 J-112.529 F9000.000
G1 X25.533 Y105.450 Z27.000 F9000.000
G1 X24.096 Y105.781 Z27.000 F9000.000
G1 X19.581 Y101.266 Z27.000 F9000.000
G3 X18.357 Y101.809 Z27.000 I-9.256 J-19.231 F9000.000
G1 X22.653 Y106.105 Z27.000 F9000.000
G1 X21.182 Y106.403 Z27.000 F9000.000
G1 X17.090 Y102.310 Z27.000 F9000.000
G3 X15.798 Y102.786 Z27.000 I-6.549 J-15.808 F9000.000
G1 X19.703 Y106.691 Z27.000 F9000.000
G1 X18.198 Y106.954 Z27.000 F9000.000
G1 X14.480 Y103.236 Z27.000 F9000.000
G1 X13.122 Y103.646 Z27.000 F9000.000
G1 X16.680 Y107.204 Z27.000 F9000.000
G1 X15.140 Y107.431 Z27.000 F9000.000
G1 X11.728 Y104.019 Z27.000 F9000.000
G3 X10.302 Y104.361 Z27.000 I-4.954 J-17.509 F9000.000
G1 X13.580 Y107.639 Z27.000 F9000.000
G1 X12.002 Y107.829 Z27.000 F9000.000
G1 X8.842 Y104.669 Z27.000 F9000.000
G1 X7.330 Y104.925 Z27.000 F9000.000
G1 X10.397 Y107.991 Z27.000 F9000.000
G1 X8.780 Y108.142 Z27.000 F9000.000
G1 X5.776 Y105.138 Z27.000 F9000.000
G3 X4.176 Y105.307 Z27.000 I-2.879 J-19.636 F9000.000
G1 X7.126 Y108.256 Z27.000 F9000.000
G3 X5.461 Y108.359 Z27.000 I-2.759 J-31.213 F9000.000
G1 X2.528 Y105.426 Z27.000 F9000.000
G3 X0.824 Y105.490 Z27.000 I-1.690 J-22.189 F9000.000
G1 X3.761 Y108.426 Z27.000 F9000.000
G3 X2.039 Y108.473 Z27.000 I-1.728 J-32.301 F9000.000
G1 X-0.943 Y105.490 Z27.000 F9000.000
G3 X-2.786 Y105.415 Z27.000 I0.523 J-35.502 F9000.000
G1 X0.295 Y108.496 Z27.000 F9000.000
G3 X-1.489 Y108.480 Z27.000 I-0.593 J-33.498 F9000.000
G1 X-4.707 Y105.262 Z27.000 F9000.000
G3 X-6.718 Y105.019 Z27.000 I2.073 J-25.587 F9000.000
G1 X-3.292 Y108.445 Z27.000 F9000.000
G1 X-5.133 Y108.372 Z27.000 F9000.000
G1 X-8.834 Y104.670 Z27.000 F9000.000
G3 X-11.089 Y104.183 Z27.000 I5.626 J-31.507 F9000.000
G1 X-7.009 Y108.264 Z27.000 F9000.000
G3 X-8.910 Y108.130 Z27.000 I1.556 J-35.765 F9000.000
G1 X-13.512 Y103.528 Z27.000 F9000.000
G3 X-16.142 Y102.666 Z27.000 I9.166 J-32.413 F9000.000
G1 X-10.860 Y107.948 Z27.000 F9000.000
G3 X-12.849 Y107.727 Z27.000 I3.161 J-37.458 F9000.000
G1 X-19.091 Y101.485 Z27.000 F9000.000
G3 X-22.543 Y99.800 Z27.000 I13.585 J-32.225 F9000.000
G1 X-14.873 Y107.470 Z27.000 F9000.000
G1 X-16.947 Y107.164 Z27.000 F9000.000
G1 X-27.101 Y97.010 Z27.000 F9000.000
G3 X-38.970 Y85.141 Z27.000 I26.917 J-38.786 F9000.000
G1 X-107.164 Y16.947 Z27.000 F9000.000
G2 X-106.800 Y19.079 Z27.000 I40.211 J-5.771 F9000.000
G1 X-19.079 Y106.800 Z27.000 F9000.000
G3 X-21.260 Y106.387 Z27.000 I6.666 J-41.154 F9000.000
G1 X-106.387 Y21.260 Z27.000 F9000.000
G2 X-105.919 Y23.495 Z27.000 I42.214 J-7.671 F9000.000
G1 X-23.495 Y105.919 Z27.000 F9000.000
G3 X-25.794 Y105.389 Z27.000 I8.809 J-43.414 F9000.000
G1 X-105.389 Y25.794 Z27.000 F9000.000
G1 X-104.772 Y28.177 Z27.000 F9000.000
G1 X-28.177 Y104.772 Z27.000 F9000.000
G3 X-30.642 Y104.076 Z27.000 I11.854 J-46.627 F9000.000
G1 X-104.076 Y30.642 Z27.000 F9000.000
G2 X-103.287 Y33.198 Z27.000 I48.385 J-13.521 F9000.000
G1 X-33.198 Y103.287 Z27.000 F9000.000
G3 X-35.860 Y102.393 Z27.000 I15.457 J-50.426 F9000.000
G1 X-102.393 Y35.860 Z27.000 F9000.000
G2 X-101.375 Y38.646 Z27.000 I52.821 J-17.728 F9000.000
G1 X-38.646 Y101.375 Z27.000 F9000.000
G3 X-41.580 Y100.209 Z27.000 I20.421 J-55.662 F9000.000
G1 X-100.209 Y41.580 Z27.000 F9000.000
G2 X-98.866 Y44.690 Z27.000 I59.074 J-23.656 F9000.000
G1 X-44.690 Y98.866 Z27.000 F9000.000
G3 X-48.054 Y97.270 Z27.000 I26.822 J-60.871 F9000.000
G1 X-97.270 Y48.054 Z27.000 F9000.000
G2 X-95.367 Y51.725 Z27.000 I69.880 J-33.901 F9000.000
G1 X-51.725 Y95.367 Z27.000 F9000.000
G3 X-55.845 Y93.015 Z27.000 I33.267 J-63.053 F9000.000
G1 X-93.015 Y55.845 Z27.000 F9000.000
G2 X-89.910 Y60.718 Z27.000 I66.493 J-38.945 F9000.000
G1 X-60.718 Y89.910 Z27.000 F9000.000
G3 X-67.278 Y85.117 Z27.000 I55.979 J-83.515 F9000.000
G3 X-85.117 Y67.278 Z27.000 I66.842 J-84.681 F9000.000
G1 X-67.278 Y85.117 Z27.000 F9000.000
G0 X-67.278 Y85.117 Z35.000
G0 X-107.164 Y16.947 Z35.000
G1 X-107.164 Y16.947 Z27.000 F3000.000
G1 X-38.970 Y85.141 Z27.000 F9000.000
G3 X-41.806 Y80.537 Z27.000 I35.224 J-24.872 F9000.000
G1 X-107.470 Y14.873 Z27.000 F9000.000
G3 X-107.727 Y12.849 Z27.000 I37.879 J-5.828 F9000.000
G1 X-43.494 Y77.081 Z27.000 F9000.000
G3 X-44.664 Y74.144 Z27.000 I35.055 J-15.661 F9000.000
G1 X-107.948 Y10.860 Z27.000 F9000.000
G1 X-108.130 Y8.910 Z27.000 F9000.000
G1 X-45.536 Y71.504 Z27.000 F9000.000
G3 X-46.176 Y69.096 Z27.000 I29.152 J-9.041 F9000.000
G1 X-108.264 Y7.009 Z27.000 F9000.000
G3 X-108.372 Y5.133 Z27.000 I35.163 J-2.964 F9000.000
G1 X-46.659 Y66.845 Z27.000 F9000.000
G3 X-47.012 Y64.725 Z27.000 I25.766 J-5.378 F9000.000
G1 X-108.445 Y3.292 Z27.000 F9000.000
G3 X-108.480 Y1.489 Z27.000 I33.826 J-1.554 F9000.000
G1 X-47.256 Y62.713 Z27.000 F9000.000
G3 X-47.408 Y60.793 Z27.000 I23.502 J-2.826 F9000.000
G1 X-108.496 Y-0.295 Z27.000 F9000.000
G1 X-108.473 Y-2.039 Z27.000 F9000.000
G1 X-47.481 Y58.953 Z27.000 F9000.000
G3 X-47.483 Y57.182 Z27.000 I21.769 J-0.920 F9000.000
G1 X-108.426 Y-3.761 Z27.000 F9000.000
G1 X-108.359 Y-5.461 Z27.000 F9000.000
G1 X-47.425 Y55.473 Z27.000 F9000.000
G3 X-47.312 Y53.818 Z27.000 I21.329 J0.623 F9000.000
G1 X-108.256 Y-7.126 Z27.000 F9000.000
G3 X-108.142 Y-8.780 Z27.000 I31.116 J1.305 F9000.000
G1 X-47.144 Y52.218 Z27.000 F9000.000
G3 X-46.923 Y50.672 Z27.000 I20.283 J2.110 F9000.000
G1 X-107.991 Y-10.397 Z27.000 F9000.000
G3 X-107.829 Y-12.002 Z27.000 I30.219 J2.251 F9000.000
G1 X-46.661 Y49.166 Z27.000 F9000.000
G3 X-46.362 Y47.697 Z27.000 I18.445 J2.989 F9000.000
G1 X-107.639 Y-13.580 Z27.000 F9000.000
G3 X-107.431 Y-15.140 Z27.000 I29.393 J3.122 F9000.000
G1 X-46.026 Y46.265 Z27.000 F9000.000
G3 X-45.643 Y44.880 Z27.000 I20.182 J4.839 F9000.000
G1 X-107.204 Y-16.680 Z27.000 F9000.000
G3 X-106.954 Y-18.198 Z27.000 I28.630 J3.927 F9000.000
G1 X-45.231 Y43.525 Z27.000 F9000.000
G3 X-44.791 Y42.197 Z27.000 I17.410 J5.032 F9000.000
G1 X-106.691 Y-19.703 Z27.000 F9000.000
G3 X-106.403 Y-21.182 Z27.000 I27.922 J4.674 F9000.000
G1 X-44.312 Y40.909 Z27.000 F9000.000
G3 X-43.802 Y39.651 Z27.000 I15.972 J5.739 F9000.000
G1 X-106.105 Y-22.653 Z27.000 F9000.000
G3 X-105.781 Y-24.096 Z27.000 I27.262 J5.370 F9000.000
G1 X-43.269 Y38.415 Z27.000 F9000.000
G1 X-42.704 Y37.213 Z27.000 F9000.000
G1 X-105.450 Y-25.533 Z27.000 F9000.000
G3 X-105.092 Y-26.942 Z27.000 I26.645 J6.021 F9000.000
G1 X-42.108 Y36.041 Z27.000 F9000.000
G3 X-41.493 Y34.888 Z27.000 I14.972 J7.249 F9000.000
G1 X-104.729 Y-28.347 Z27.000 F9000.000
G3 X-104.339 Y-29.725 Z27.000 I26.066 J6.631 F9000.000
G1 X-40.846 Y33.767 Z27.000 F9000.000
G3 X-40.173 Y32.673 Z27.000 I14.020 J7.868 F9000.000
G1 X-103.945 Y-31.099 Z27.000 F9000.000
G3 X-103.525 Y-32.447 Z27.000 I25.522 J7.205 F9000.000
G1 X-39.482 Y31.596 Z27.000 F9000.000
G1 X-38.757 Y30.553 Z27.000 F9000.000
G1 X-103.100 Y-33.790 Z27.000 F9000.000
G3 X-102.652 Y-35.110 Z27.000 I25.008 J7.747 F9000.000
G1 X-38.012 Y29.531 Z27.000 F9000.000
G3 X-37.249 Y28.526 Z27.000 I96.352 J72.352 F9000.000
G1 X-102.198 Y-36.424 Z27.000 F9000.000
G3 X-101.724 Y-37.717 Z27.000 I24.521 J8.261 F9000.000
G1 X-36.450 Y27.557 Z27.000 F9000.000
G3 X-35.635 Y26.604 Z27.000 I12.303 J9.691 F9000.000
G1 X-101.241 Y-39.002 Z27.000 F9000.000
G3 X-100.741 Y-40.270 Z27.000 I24.058 J8.749 F9000.000
G1 X-34.798 Y25.674 Z27.000 F9000.000
G3 X-33.931 Y24.773 Z27.000 I11.918 J10.605 F9000.000
G1 X-100.231 Y-41.527 Z27.000 F9000.000
G3 X-99.707 Y-42.771 Z27.000 I23.617 J9.214 F9000.000
G1 X-33.048 Y23.888 Z27.000 F9000.000
G1 X-32.137 Y23.031 Z27.000 F9000.000
G1 X-99.168 Y-44.000 Z27.000 F9000.000
G3 X-98.622 Y-45.221 Z27.000 I23.195 J9.659 F9000.000
G1 X-31.202 Y22.198 Z27.000 F9000.000
G3 X-30.253 Y21.380 Z27.000 I18.653 J20.700 F9000.000
G1 X-98.056 Y-46.424 Z27.000 F9000.000
G3 X-97.487 Y-47.622 Z27.000 I22.792 J10.085 F9000.000
G1 X-29.266 Y20.598 Z27.000 F9000.000
G3 X-28.264 Y19.834 Z27.000 I10.026 J12.107 F9000.000
G1 X-96.896 Y-48.799 Z27.000 F9000.000
G1 X-96.304 Y-49.975 Z27.000 F9000.000
G1 X-27.240 Y19.090 Z27.000 F9000.000
G3 X-26.182 Y18.379 Z27.000 I9.874 J13.551 F9000.000
G1 X-95.688 Y-51.127 Z27.000 F9000.000
G1 X-95.071 Y-52.277 Z27.000 F9000.000
G1 X-25.108 Y17.686 Z27.000 F9000.000
G1 X-24.007 Y17.019 Z27.000 F9000.000
G1 X-94.435 Y-53.408 Z27.000 F9000.000
G1 X-93.792 Y-54.533 Z27.000 F9000.000
G1 X-22.876 Y16.383 Z27.000 F9000.000
G3 X-21.725 Y15.765 Z27.000 I8.369 J14.212 F9000.000
G1 X-93.136 Y-55.645 Z27.000 F9000.000
G1 X-92.468 Y-56.745 Z27.000 F9000.000
G1 X-20.544 Y15.179 Z27.000 F9000.000
G3 X-19.332 Y14.623 Z27.000 I7.588 J14.943 F9000.000
G1 X-91.793 Y-57.838 Z27.000 F9000.000
G1 X-91.101 Y-58.913 Z27.000 F9000.000
G1 X-18.098 Y14.089 Z27.000 F9000.000
G1 X-16.832 Y13.587 Z27.000 F9000.000
G1 X-90.408 Y-59.988 Z27.000 F9000.000
G1 X-89.691 Y-61.039 Z27.000 F9000.000
G1 X-15.531 Y13.121 Z27.000 F9000.000
G3 X-14.203 Y12.681 Z27.000 I6.140 J16.292 F9000.000
G1 X-88.973 Y-62.089 Z27.000 F9000.000
G3 X-88.238 Y-63.122 Z27.000 I19.756 J13.286 F9000.000
G1 X-12.845 Y12.271 Z27.000 F9000.000
G3 X-11.441 Y11.907 Z27.000 I6.025 J20.367 F9000.000
G1 X-87.497 Y-64.148 Z27.000 F9000.000
G3 X-86.744 Y-65.164 Z27.000 I19.439 J13.620 F9000.000
G1 X-10.005 Y11.576 Z27.000 F9000.000
G3 X-8.534 Y11.279 Z27.000 I4.450 J18.263 F9000.000
G1 X-85.979 Y-66.166 Z27.000 F9000.000
G3 X-85.209 Y-67.164 Z27.000 I19.128 J13.949 F9000.000
G1 X-7.022 Y11.023 Z27.000 F9000.000
G3 X-5.456 Y10.822 Z27.000 I3.659 J22.260 F9000.000
G1 X-84.420 Y-68.143 Z27.000 F9000.000
G1 X-83.630 Y-69.121 Z27.000 F9000.000
G1 X-3.844 Y10.666 Z27.000 F9000.000
G3 X-2.182 Y10.560 Z27.000 I2.135 J20.418 F9000.000
G1 X-82.820 Y-70.079 Z27.000 F9000.000
G1 X-82.007 Y-71.033 Z27.000 F9000.000
G1 X-0.464 Y10.510 Z27.000 F9000.000
G3 X1.317 Y10.523 Z27.000 I0.721 J22.366 F9000.000
G1 X-81.181 Y-71.975 Z27.000 F9000.000
G1 X-80.344 Y-72.906 Z27.000 F9000.000
G1 X3.170 Y10.609 Z27.000 F9000.000
G3 X5.107 Y10.778 Z27.000 I-1.264 J25.725 F9000.000
G1 X-79.501 Y-73.830 Z27.000 F9000.000
G1 X-78.641 Y-74.738 Z27.000 F9000.000
G1 X7.140 Y11.043 Z27.000 F9000.000
G3 X9.288 Y11.423 Z27.000 I-3.652 J26.893 F9000.000
G1 X-77.781 Y-75.645 Z27.000 F9000.000
G3 X-76.898 Y-76.530 Z27.000 I17.061 J16.130 F9000.000
G1 X11.574 Y11.941 Z27.000 F9000.000
G3 X14.028 Y12.628 Z27.000 I-7.139 J30.242 F9000.000
G1 X-76.014 Y-77.414 Z27.000 F9000.000
G3 X-75.115 Y-78.283 Z27.000 I16.764 J16.443 F9000.000
G1 X16.705 Y13.537 Z27.000 F9000.000
G3 X19.740 Y14.805 Z27.000 I-13.851 J37.437 F9000.000
G1 X-74.208 Y-79.144 Z27.000 F9000.000
G3 X-73.293 Y-79.996 Z27.000 I16.467 J16.756 F9000.000
G1 X23.343 Y16.639 Z27.000 F9000.000
G3 X28.415 Y19.944 Z27.000 I-21.650 J38.777 F9000.000
G1 X-72.362 Y-80.833 Z27.000 F9000.000
G3 X-71.430 Y-81.669 Z27.000 I16.169 J17.071 F9000.000
G1 X81.669 Y71.430 Z27.000 F9000.000
G1 X82.482 Y70.476 Z27.000 F9000.000
G1 X-70.476 Y-82.482 Z27.000 F9000.000
G1 X-69.521 Y-83.296 Z27.000 F9000.000
G1 X83.296 Y69.521 Z27.000 F9000.000
G2 X84.092 Y68.549 Z27.000 I-17.845 J-15.434 F9000.000
G1 X-68.549 Y-84.092 Z27.000 F9000.000
G1 X-67.571 Y-84.881 Z27.000 F9000.000
G1 X84.881 Y67.571 Z27.000 F9000.000
G2 X85.661 Y66.583 Z27.000 I-18.167 J-15.128 F9000.000
G1 X-66.583 Y-85.661 Z27.000 F9000.000
G1 X-65.580 Y-86.426 Z27.000 F9000.000
G1 X86.426 Y65.580 Z27.000 F9000.000
G2 X87.188 Y64.575 Z27.000 I-18.494 J-14.818 F9000.000
G1 X-64.575 Y-87.188 Z27.000 F9000.000
G1 X-63.549 Y-87.930 Z27.000 F9000.000
G1 X87.930 Y63.549 Z27.000 F9000.000
G1 X88.671 Y62.522 Z27.000 F9000.000
G1 X-62.522 Y-88.671 Z27.000 F9000.000
G3 X-61.476 Y-89.392 Z27.000 I14.060 J19.294 F9000.000
G1 X89.392 Y61.476 Z27.000 F9000.000
G1 X90.110 Y60.425 Z27.000 F9000.000
G1 X-60.425 Y-90.110 Z27.000 F9000.000
G3 X-59.360 Y-90.813 Z27.000 I13.734 J19.638 F9000.000
G1 X90.813 Y59.360 Z27.000 F9000.000
G1 X91.505 Y58.285 Z27.000 F9000.000
G1 X-58.285 Y-91.505 Z27.000 F9000.000
G3 X-57.202 Y-92.190 Z27.000 I13.401 J19.990 F9000.000
G1 X92.190 Y57.202 Z27.000 F9000.000
G1 X92.858 Y56.103 Z27.000 F9000.000
G1 X-56.103 Y-92.858 Z27.000 F9000.000
G3 X-55.001 Y-93.524 Z27.000 I13.058 J20.350 F9000.000
G1 X93.524 Y55.001 Z27.000 F9000.000
G1 X94.167 Y53.876 Z27.000 F9000.000
G1 X-53.876 Y-94.167 Z27.000 F9000.000
G1 X-52.751 Y-94.810 Z27.000 F9000.000
G1 X94.810 Y52.751 Z27.000 F9000.000
G2 X95.432 Y51.605 Z27.000 I-21.214 J-12.240 F9000.000
G1 X-51.605 Y-95.432 Z27.000 F9000.000
G1 X-50.454 Y-96.049 Z27.000 F9000.000
G1 X96.049 Y50.454 Z27.000 F9000.000
G2 X96.650 Y49.288 Z27.000 I-21.605 J-11.869 F9000.000
G1 X-49.288 Y-96.650 Z27.000 F9000.000
G1 X-48.111 Y-97.241 Z27.000 F9000.000
G1 X97.241 Y48.111 Z27.000 F9000.000
G2 X97.821 Y46.924 Z27.000 I-22.011 J-11.484 F9000.000
G1 X-46.924 Y-97.821 Z27.000 F9000.000
G1 X-45.721 Y-98.387 Z27.000 F9000.000
G1 X98.387 Y45.721 Z27.000 F9000.000
G2 X98.945 Y44.511 Z27.000 I-22.434 J-11.084 F9000.000
G1 X-44.511 Y-98.945 Z27.000 F9000.000
G1 X-43.282 Y-99.483 Z27.000 F9000.000
G1 X99.483 Y43.282 Z27.000 F9000.000
G2 X100.018 Y42.049 Z27.000 I-22.874 J-10.666 F9000.000
G1 X-42.049 Y-100.018 Z27.000 F9000.000
G1 X-40.792 Y-100.529 Z27.000 F9000.000
G1 X100.529 Y40.792 Z27.000 F9000.000
G1 X101.040 Y39.536 Z27.000 F9000.000
G1 X-39.536 Y-101.040 Z27.000 F9000.000
G3 X-38.251 Y-101.523 Z27.000 I9.718 J23.875 F9000.000
G1 X101.523 Y38.251 Z27.000 F9000.000
G1 X102.006 Y36.966 Z27.000 F9000.000
G1 X-36.966 Y-102.006 Z27.000 F9000.000
G3 X-35.656 Y-102.464 Z27.000 I9.248 J24.370 F9000.000
G1 X102.464 Y35.656 Z27.000 F9000.000
G1 X102.918 Y34.342 Z27.000 F9000.000
G1 X-34.342 Y-102.918 Z27.000 F9000.000
G3 X-33.005 Y-103.348 Z27.000 I8.752 J24.892 F9000.000
G1 X103.348 Y33.005 Z27.000 F9000.000
G1 X103.773 Y31.662 Z27.000 F9000.000
G1 X-31.662 Y-103.773 Z27.000 F9000.000
G3 X-30.296 Y-104.175 Z27.000 I8.230 J25.444 F9000.000
G1 X104.175 Y30.296 Z27.000 F9000.000
G1 X104.569 Y28.923 Z27.000 F9000.000
G1 X-28.923 Y-104.569 Z27.000 F9000.000
G3 X-27.526 Y-104.941 Z27.000 I7.675 J26.028 F9000.000
G1 X104.941 Y27.526 Z27.000 F9000.000
G1 X105.304 Y26.122 Z27.000 F9000.000
G1 X-26.122 Y-105.304 Z27.000 F9000.000
G3 X-24.693 Y-105.643 Z27.000 I7.086 J26.650 F9000.000
G1 X105.643 Y24.693 Z27.000 F9000.000
G1 X105.974 Y23.256 Z27.000 F9000.000
G1 X-23.256 Y-105.974 Z27.000 F9000.000
G3 X-21.794 Y-106.279 Z27.000 I6.458 J27.312 F9000.000
G1 X106.279 Y21.794 Z27.000 F9000.000
G1 X106.577 Y20.323 Z27.000 F9000.000
G1 X-20.323 Y-106.577 Z27.000 F9000.000
G3 X-18.824 Y-106.845 Z27.000 I5.785 J28.022 F9000.000
G1 X106.845 Y18.824 Z27.000 F9000.000
G1 X107.108 Y17.319 Z27.000 F9000.000
G1 X-17.319 Y-107.108 Z27.000 F9000.000
G3 X-15.780 Y-107.336 Z27.000 I5.063 J28.784 F9000.000
G1 X107.336 Y15.780 Z27.000 F9000.000
G2 X107.560 Y14.236 Z27.000 I-28.887 J-4.965 F9000.000
G1 X-14.236 Y-107.560 Z27.000 F9000.000
G1 X-12.658 Y-107.750 Z27.000 F9000.000
G1 X107.750 Y12.658 Z27.000 F9000.000
G2 X107.928 Y11.069 Z27.000 I-29.745 J-4.151 F9000.000
G1 X-11.069 Y-107.928 Z27.000 F9000.000
G1 X-9.452 Y-108.080 Z27.000 F9000.000
G1 X108.080 Y9.452 Z27.000 F9000.000
G2 X108.210 Y7.815 Z27.000 I-30.677 J-3.268 F9000.000
G1 X-7.815 Y-108.210 Z27.000 F9000.000
G1 X-6.157 Y-108.320 Z27.000 F9000.000
G1 X108.320 Y6.157 Z27.000 F9000.000
G2 X108.398 Y4.467 Z27.000 I-31.693 J-2.305 F9000.000
G1 X-4.467 Y-108.398 Z27.000 F9000.000
G3 X-2.764 Y-108.463 Z27.000 I2.067 J31.944 F9000.000
G1 X108.463 Y2.764 Z27.000 F9000.000
G1 X108.486 Y1.020 Z27.000 F9000.000
G1 X-1.020 Y-108.486 Z27.000 F9000.000
G3 X0.744 Y-108.490 Z27.000 I0.951 J33.121 F9000.000
G1 X108.490 Y-0.744 Z27.000 F9000.000
G1 X108.466 Y-2.536 Z27.000 F9000.000
G1 X2.536 Y-108.466 Z27.000 F9000.000
G3 X4.367 Y-108.402 Z27.000 I-0.282 J34.421 F9000.000
G1 X108.402 Y-4.367 Z27.000 F9000.000
G2 X108.316 Y-6.221 Z27.000 I-34.849 J0.688 F9000.000
G1 X6.221 Y-108.316 Z27.000 F9000.000
G1 X8.115 Y-108.190 Z27.000 F9000.000
G1 X108.190 Y-8.115 Z27.000 F9000.000
G2 X108.024 Y-10.049 Z27.000 I-36.396 J2.154 F9000.000
G1 X10.049 Y-108.024 Z27.000 F9000.000
G3 X12.013 Y-107.827 Z27.000 I-2.708 J36.979 F9000.000
G1 X107.827 Y-12.013 Z27.000 F9000.000
G1 X107.585 Y-14.023 Z27.000 F9000.000
G1 X14.023 Y-107.585 Z27.000 F9000.000
G3 X16.085 Y-107.291 Z27.000 I-4.486 J38.855 F9000.000
G1 X107.291 Y-16.085 Z27.000 F9000.000
G2 X106.956 Y-18.188 Z27.000 I-39.661 J5.250 F9000.000
G1 X18.188 Y-106.956 Z27.000 F9000.000
G3 X20.338 Y-106.574 Z27.000 I-6.103 J40.561 F9000.000
G1 X106.574 Y-20.338 Z27.000 F9000.000
G1 X106.125 Y-22.554 Z27.000 F9000.000
G1 X22.554 Y-106.125 Z27.000 F9000.000
G3 X24.837 Y-105.610 Z27.000 I-8.528 J43.118 F9000.000
G1 X105.610 Y-24.837 Z27.000 F9000.000
G2 X105.029 Y-27.186 Z27.000 I-44.399 J9.742 F9000.000
G1 X27.186 Y-105.029 Z27.000 F9000.000
G3 X29.611 Y-104.371 Z27.000 I-11.127 J45.860 F9000.000
G1 X104.371 Y-29.611 Z27.000 F9000.000
G2 X103.627 Y-32.124 Z27.000 I-47.541 J12.721 F9000.000
G1 X32.124 Y-103.627 Z27.000 F9000.000
G3 X34.737 Y-102.781 Z27.000 I-14.570 J49.491 F9000.000
G1 X102.781 Y-34.737 Z27.000 F9000.000
G2 X101.817 Y-37.469 Z27.000 I-51.778 J16.738 F9000.000
G1 X37.469 Y-101.817 Z27.000 F9000.000
G3 X40.342 Y-100.712 Z27.000 I-19.308 J54.488 F9000.000
G1 X100.712 Y-40.342 Z27.000 F9000.000
G2 X99.439 Y-43.383 Z27.000 I-57.742 J22.393 F9000.000
G1 X43.383 Y-99.439 Z27.000 F9000.000
G3 X46.630 Y-97.959 Z27.000 I-26.151 J61.705 F9000.000
G1 X97.959 Y-46.630 Z27.000 F9000.000
G2 X96.218 Y-50.139 Z27.000 I-64.121 J29.632 F9000.000
G1 X50.139 Y-96.218 Z27.000 F9000.000
G3 X54.066 Y-94.059 Z27.000 I-38.584 J74.818 F9000.000
G1 X94.059 Y-54.066 Z27.000 F9000.000
G2 X91.321 Y-58.572 Z27.000 I-66.628 J37.401 F9000.000
G1 X58.572 Y-91.321 Z27.000 F9000.000
G3 X64.204 Y-87.457 Z27.000 I-47.558 J75.350 F9000.000
G1 X87.457 Y-64.204 Z27.000 F9000.000
G2 X75.693 Y-77.735 Z27.000 I-86.492 J63.313 F9000.000
G1 X75.693 Y-77.735 Z24.000 F3000.000
G3 X87.457 Y-64.204 Z24.000 I-74.728 J76.845 F9000.000
G1 X64.204 Y-87.457 Z24.000 F9000.000
G2 X58.572 Y-91.321 Z24.000 I-53.190 J71.486 F9000.000
G1 X91.321 Y-58.572 Z24.000 F9000.000
G3 X94.059 Y-54.066 Z24.000 I-63.890 J41.907 F9000.000
G1 X54.066 Y-94.059 Z24.000 F9000.000
G2 X50.139 Y-96.218 Z24.000 I-42.511 J72.659 F9000.000
G1 X96.218 Y-50.139 Z24.000 F9000.000
G3 X97.959 Y-46.630 Z24.000 I-62.380 J33.141 F9000.000
G1 X46.630 Y-97.959 Z24.000 F9000.000
G2 X43.383 Y-99.439 Z24.000 I-29.398 J60.226 F9000.000
G1 X99.439 Y-43.383 Z24.000 F9000.000
G3 X100.712 Y-40.342 Z24.000 I-56.468 J25.435 F9000.000
G1 X40.342 Y-100.712 Z24.000 F9000.000
G2 X37.469 Y-101.817 Z24.000 I-22.181 J53.383 F9000.000
G1 X101.817 Y-37.469 Z24.000 F9000.000
G3 X102.781 Y-34.737 Z24.000 I-50.813 J19.470 F9000.000
G1 X34.737 Y-102.781 Z24.000 F9000.000
G2 X32.124 Y-103.627 Z24.000 I-17.184 J48.646 F9000.000
G1 X103.627 Y-32.124 Z24.000 F9000.000
G3 X104.371 Y-29.611 Z24.000 I-46.796 J15.233 F9000.000
G1 X29.611 Y-104.371 Z24.000 F9000.000
G2 X27.186 Y-105.029 Z24.000 I-13.552 J45.203 F9000.000
G1 X105.029 Y-27.186 Z24.000 F9000.000
G3 X105.610 Y-24.837 Z24.000 I-43.817 J12.091 F9000.000
G1 X24.837 Y-105.610 Z24.000 F9000.000
G2 X22.554 Y-106.125 Z24.000 I-10.811 J42.603 F9000.000
G1 X106.125 Y-22.554 Z24.000 F9000.000
G1 X106.574 Y-20.338 Z24.000 F9000.000
G1 X20.338 Y-106.574 Z24.000 F9000.000
G2 X18.188 Y-106.956 Z24.000 I-8.253 J40.178 F9000.000
G1 X106.956 Y-18.188 Z24.000 F9000.000
G3 X107.291 Y-16.085 Z24.000 I-39.325 J7.353 F9000.000
G1 X16.085 Y-107.291 Z24.000 F9000.000
G2 X14.023 Y-107.585 Z24.000 I-6.548 J38.561 F9000.000
G1 X107.585 Y-14.023 Z24.000 F9000.000
G1 X107.827 Y-12.013 Z24.000 F9000.000
G1 X12.013 Y-107.827 Z24.000 F9000.000
G2 X10.049 Y-108.024 Z24.000 I-4.672 J36.783 F9000.000
G1 X108.024 Y-10.049 Z24.000 F9000.000
G3 X108.190 Y-8.115 Z24.000 I-36.229 J4.088 F9000.000
G1 X8.115 Y-108.190 Z24.000 F9000.000
G1 X6.221 Y-108.316 Z24.000 F9000.000
G1 X108.316 Y-6.221 Z24.000 F9000.000
G3 X108.402 Y-4.367 Z24.000 I-34.763 J2.541 F9000.000
G1 X4.367 Y-108.402 Z24.000 F9000.000
G2 X2.536 Y-108.466 Z24.000 I-2.114 J34.357 F9000.000
G1 X108.466 Y-2.536 Z24.000 F9000.000
G1 X108.490 Y-0.744 Z24.000 F9000.000
G1 X0.744 Y-108.490 Z24.000 F9000.000
G2 X-1.020 Y-108.486 Z24.000 I-0.813 J33.124 F9000.000
G1 X108.486 Y1.020 Z24.000 F9000.000
G1 X108.463 Y2.764 Z24.000 F9000.000
G1 X-2.764 Y-108.463 Z24.000 F9000.000
G2 X-4.467 Y-108.398 Z24.000 I0.364 J32.008 F9000.000
G1 X108.398 Y4.467 Z24.000 F9000.000
G3 X108.320 Y6.157 Z24.000 I-31.770 J-0.615 F9000.000
G1 X-6.157 Y-108.320 Z24.000 F9000.000
G1 X-7.815 Y-108.210 Z24.000 F9000.000
G1 X108.210 Y7.815 Z24.000 F9000.000
G3 X108.080 Y9.452 Z24.000 I-30.807 J-1.631 F9000.000
G1 X-9.452 Y-108.080 Z24.000 F9000.000
G1 X-11.069 Y-107.928 Z24.000 F9000.000
G1 X107.928 Y11.069 Z24.000 F9000.000
G3 X107.750 Y12.658 Z24.000 I-29.924 J-2.562 F9000.000
G1 X-12.658 Y-107.750 Z24.000 F9000.000
G1 X-14.236 Y-107.560 Z24.000 F9000.000
G1 X107.560 Y14.236 Z24.000 F9000.000
G3 X107.336 Y15.780 Z24.000 I-29.110 J-3.421 F9000.000
G1 X-15.780 Y-107.336 Z24.000 F9000.000
G2 X-17.319 Y-107.108 Z24.000 I3.524 J29.012 F9000.000
G1 X107.108 Y17.319 Z24.000 F9000.000
G1 X106.845 Y18.824 Z24.000 F9000.000
G1 X-18.824 Y-106.845 Z24.000 F9000.000
G2 X-20.323 Y-106.577 Z24.000 I4.286 J28.290 F9000.000
G1 X106.577 Y20.323 Z24.000 F9000.000
G1 X106.279 Y21.794 Z24.000 F9000.000
G1 X-21.794 Y-106.279 Z24.000 F9000.000
G2 X-23.256 Y-105.974 Z24.000 I4.995 J27.617 F9000.000
G1 X105.974 Y23.256 Z24.000 F9000.000
G1 X105.643 Y24.693 Z24.000 F9000.000
G1 X-24.693 Y-105.643 Z24.000 F9000.000
G2 X-26.122 Y-105.304 Z24.000 I5.658 J26.989 F9000.000
G1 X105.304 Y26.122 Z24.000 F9000.000
G1 X104.941 Y27.526 Z24.000 F9000.000
G1 X-27.526 Y-104.941 Z24.000 F9000.000
G2 X-28.923 Y-104.569 Z24.000 I6.279 J26.400 F9000.000
G1 X104.569 Y28.923 Z24.000 F9000.000
G1 X104.175 Y30.296 Z24.000 F9000.000
G1 X-30.296 Y-104.175 Z24.000 F9000.000
G2 X-31.662 Y-103.773 Z24.000 I6.864 J25.846 F9000.000
G1 X103.773 Y31.662 Z24.000 F9000.000
G1 X103.348 Y33.005 Z24.000 F9000.000
G1 X-33.005 Y-103.348 Z24.000 F9000.000
G2 X-34.342 Y-102.918 Z24.000 I7.415 J25.323 F9000.000
G1 X102.918 Y34.342 Z24.000 F9000.000
G1 X102.464 Y35.656 Z24.000 F9000.000
G1 X-35.656 Y-102.464 Z24.000 F9000.000
G2 X-36.966 Y-102.006 Z24.000 I7.937 J24.828 F9000.000
G1 X102.006 Y36.966 Z24.000 F9000.000
G1 X101.523 Y38.251 Z24.000 F9000.000
G1 X-38.251 Y-101.523 Z24.000 F9000.000
G2 X-39.536 Y-101.040 Z24.000 I8.433 J24.358 F9000.000
G1 X101.040 Y39.536 Z24.000 F9000.000
G1 X100.529 Y40.792 Z24.000 F9000.000
G1 X-40.792 Y-100.529 Z24.000 F9000.000
G1 X-42.049 Y-100.018 Z24.000 F9000.000
G1 X100.018 Y42.049 Z24.000 F9000.000
G3 X99.483 Y43.282 Z24.000 I-23.409 J-9.434 F9000.000
G1 X-43.282 Y-99.483 Z24.000 F9000.000
G1 X-44.511 Y-98.945 Z24.000 F9000.000
G1 X98.945 Y44.511 Z24.000 F9000.000
G3 X98.387 Y45.721 Z24.000 I-22.992 J-9.874 F9000.000
G1 X-45.721 Y-98.387 Z24.000 F9000.000
G1 X-46.924 Y-97.821 Z24.000 F9000.000
G1 X97.821 Y46.924 Z24.000 F9000.000
G3 X97.241 Y48.111 Z24.000 I-22.591 J-10.296 F9000.000
G1 X-48.111 Y-97.241 Z24.000 F9000.000
G1 X-49.288 Y-96.650 Z24.000 F9000.000
G1 X96.650 Y49.288 Z24.000 F9000.000
G3 X96.049 Y50.454 Z24.000 I-22.206 J-10.702 F9000.000
G1 X-50.454 Y-96.049 Z24.000 F9000.000
G1 X-51.605 Y-95.432 Z24.000 F9000.000
G1 X95.432 Y51.605 Z24.000 F9000.000
G3 X94.810 Y52.751 Z24.000 I-21.835 J-11.094 F9000.000
G1 X-52.751 Y-94.810 Z24.000 F9000.000
G1 X-53.876 Y-94.167 Z24.000 F9000.000
G1 X94.167 Y53.876 Z24.000 F9000.000
G1 X93.524 Y55.001 Z24.000 F9000.000
G1 X-55.001 Y-93.524 Z24.000 F9000.000
G2 X-56.103 Y-92.858 Z24.000 I11.956 J21.017 F9000.000
G1 X92.858 Y56.103 Z24.000 F9000.000
G1 X92.190 Y57.202 Z24.000 F9000.000
G1 X-57.202 Y-92.190 Z24.000 F9000.000
G2 X-58.285 Y-91.505 Z24.000 I12.318 J20.675 F9000.000
G1 X91.505 Y58.285 Z24.000 F9000.000
G1 X90.813 Y59.360 Z24.000 F9000.000
G1 X-59.360 Y-90.813 Z24.000 F9000.000
G2 X-60.425 Y-90.110 Z24.000 I12.670 J20.341 F9000.000
G1 X90.110 Y60.425 Z24.000 F9000.000
G1 X89.392 Y61.476 Z24.000 F9000.000
G1 X-61.476 Y-89.392 Z24.000 F9000.000
G2 X-62.522 Y-88.671 Z24.000 I13.013 J20.015 F9000.000
G1 X88.671 Y62.522 Z24.000 F9000.000
G1 X87.930 Y63.549 Z24.000 F9000.000
G1 X-63.549 Y-87.930 Z24.000 F9000.000
G1 X-64.575 Y-87.188 Z24.000 F9000.000
G1 X87.188 Y64.575 Z24.000 F9000.000
G3 X86.426 Y65.580 Z24.000 I-19.257 J-13.813 F9000.000
G1 X-65.580 Y-86.426 Z24.000 F9000.000
G1 X-66.583 Y-85.661 Z24.000 F9000.000
G1 X85.661 Y66.583 Z24.000 F9000.000
G3 X84.881 Y67.571 Z24.000 I-18.947 J-14.140 F9000.000
G1 X-67.571 Y-84.881 Z24.000 F9000.000
G1 X-68.549 Y-84.092 Z24.000 F9000.000
G1 X84.092 Y68.549 Z24.000 F9000.000
G3 X83.296 Y69.521 Z24.000 I-18.641 J-14.463 F9000.000
G1 X-69.521 Y-83.296 Z24.000 F9000.000
G1 X-70.476 Y-82.482 Z24.000 F9000.000
G1 X82.482 Y70.476 Z24.000 F9000.000
G1 X81.669 Y71.430 Z24.000 F9000.000
G1 X-71.430 Y-81.669 Z24.000 F9000.000
G2 X-72.362 Y-80.833 Z24.000 I15.238 J17.908 F9000.000
G1 X28.415 Y19.944 Z24.000 F9000.000
G2 X23.343 Y16.639 Z24.000 I-26.722 J35.473 F9000.000
G1 X-73.293 Y-79.996 Z24.000 F9000.000
G2 X-74.208 Y-79.144 Z24.000 I15.552 J17.608 F9000.000
G1 X19.740 Y14.805 Z24.000 F9000.000
G2 X16.705 Y13.537 Z24.000 I-16.886 J36.169 F9000.000
G1 X-75.115 Y-78.283 Z24.000 F9000.000
G2 X-76.014 Y-77.414 Z24.000 I15.865 J17.311 F9000.000
G1 X14.028 Y12.628 Z24.000 F9000.000
G2 X11.574 Y11.941 Z24.000 I-9.594 J29.555 F9000.000
G1 X-76.898 Y-76.530 Z24.000 F9000.000
G2 X-77.781 Y-75.645 Z24.000 I16.178 J17.015 F9000.000
G1 X9.288 Y11.423 Z24.000 F9000.000
G2 X7.140 Y11.043 Z24.000 I-5.799 J26.513 F9000.000
G1 X-78.641 Y-74.738 Z24.000 F9000.000
G1 X-79.501 Y-73.830 Z24.000 F9000.000
G1 X5.107 Y10.778 Z24.000 F9000.000
G2 X3.170 Y10.609 Z24.000 I-3.201 J25.556 F9000.000
G1 X-80.344 Y-72.906 Z24.000 F9000.000
G1 X-81.181 Y-71.975 Z24.000 F9000.000
G1 X1.317 Y10.523 Z24.000 F9000.000
G2 X-0.464 Y10.510 Z24.000 I-1.060 J22.352 F9000.000
G1 X-82.007 Y-71.033 Z24.000 F9000.000
G1 X-82.820 Y-70.079 Z24.000 F9000.000
G1 X-2.182 Y10.560 Z24.000 F9000.000
G2 X-3.844 Y10.666 Z24.000 I0.473 J20.524 F9000.000
G1 X-83.630 Y-69.121 Z24.000 F9000.000
G1 X-84.420 Y-68.143 Z24.000 F9000.000
G1 X-5.456 Y10.822 Z24.000 F9000.000
G2 X-7.022 Y11.023 Z24.000 I2.092 J22.461 F9000.000
G1 X-85.209 Y-67.164 Z24.000 F9000.000
G2 X-85.979 Y-66.166 Z24.000 I18.359 J14.947 F9000.000
G1 X-8.534 Y11.279 Z24.000 F9000.000
G2 X-10.005 Y11.576 Z24.000 I2.979 J18.560 F9000.000
G1 X-86.744 Y-65.164 Z24.000 F9000.000
G2 X-87.497 Y-64.148 Z24.000 I18.687 J14.636 F9000.000
G1 X-11.441 Y11.907 Z24.000 F9000.000
G2 X-12.845 Y12.271 Z24.000 I4.621 J20.731 F9000.000
G1 X-88.238 Y-63.122 Z24.000 F9000.000
G2 X-88.973 Y-62.089 Z24.000 I19.021 J14.319 F9000.000
G1 X-14.203 Y12.681 Z24.000 F9000.000
G2 X-15.531 Y13.121 Z24.000 I4.813 J16.732 F9000.000
G1 X-89.691 Y-61.039 Z24.000 F9000.000
G1 X-90.408 Y-59.988 Z24.000 F9000.000
G1 X-16.832 Y13.587 Z24.000 F9000.000
G1 X-18.098 Y14.089 Z24.000 F9000.000
G1 X-91.101 Y-58.913 Z24.000 F9000.000
G1 X-91.793 Y-57.838 Z24.000 F9000.000
G1 X-19.332 Y14.623 Z24.000 F9000.000
G2 X-20.544 Y15.179 Z24.000 I6.376 J15.499 F9000.000
G1 X-92.468 Y-56.745 Z24.000 F9000.000
G1 X-93.136 Y-55.645 Z24.000 F9000.000
G1 X-21.725 Y15.765 Z24.000 F9000.000
G2 X-22.876 Y16.383 Z24.000 I7.218 J14.830 F9000.000
G1 X-93.792 Y-54.533 Z24.000 F9000.000
G1 X-94.435 Y-53.408 Z24.000 F9000.000
G1 X-24.007 Y17.019 Z24.000 F9000.000
G1 X-25.108 Y17.686 Z24.000 F9000.000
G1 X-95.071 Y-52.277 Z24.000 F9000.000
G1 X-95.688 Y-51.127 Z24.000 F9000.000
G1 X-26.182 Y18.379 Z24.000 F9000.000
G2 X-27.240 Y19.090 Z24.000 I8.817 J14.261 F9000.000
G1 X-96.304 Y-49.975 Z24.000 F9000.000
G1 X-96.896 Y-48.799 Z24.000 F9000.000
G1 X-28.264 Y19.834 Z24.000 F9000.000
G2 X-29.266 Y20.598 Z24.000 I9.023 J12.872 F9000.000
G1 X-97.487 Y-47.622 Z24.000 F9000.000
G2 X-98.056 Y-46.424 Z24.000 I22.223 J11.284 F9000.000
G1 X-30.253 Y21.380 Z24.000 F9000.000
G2 X-31.202 Y22.198 Z24.000 I17.703 J21.518 F9000.000
G1 X-98.622 Y-45.221 Z24.000 F9000.000
G2 X-99.168 Y-44.000 Z24.000 I22.649 J10.879 F9000.000
G1 X-32.137 Y23.031 Z24.000 F9000.000
G1 X-33.048 Y23.888 Z24.000 F9000.000
G1 X-99.707 Y-42.771 Z24.000 F9000.000
G2 X-100.231 Y-41.527 Z24.000 I23.093 J10.458 F9000.000
G1 X-33.931 Y24.773 Z24.000 F9000.000
G2 X-34.798 Y25.674 Z24.000 I11.051 J11.506 F9000.000
G1 X-100.741 Y-40.270 Z24.000 F9000.000
G2 X-101.241 Y-39.002 Z24.000 I23.558 J10.017 F9000.000
G1 X-35.635 Y26.604 Z24.000 F9000.000
G2 X-36.450 Y27.557 Z24.000 I11.488 J10.644 F9000.000
G1 X-101.724 Y-37.717 Z24.000 F9000.000
G2 X-102.198 Y-36.424 Z24.000 I24.047 J9.554 F9000.000
G1 X-37.249 Y28.526 Z24.000 F9000.000
G2 X-38.012 Y29.531 Z24.000 I95.590 J73.357 F9000.000
G1 X-102.652 Y-35.110 Z24.000 F9000.000
G2 X-103.100 Y-33.790 Z24.000 I24.560 J9.067 F9000.000
G1 X-38.757 Y30.553 Z24.000 F9000.000
G1 X-39.482 Y31.596 Z24.000 F9000.000
G1 X-103.525 Y-32.447 Z24.000 F9000.000
G2 X-103.945 Y-31.099 Z24.000 I25.103 J8.553 F9000.000
G1 X-40.173 Y32.673 Z24.000 F9000.000
G2 X-40.846 Y33.767 Z24.000 I13.346 J8.963 F9000.000
G1 X-104.339 Y-29.725 Z24.000 F9000.000
G2 X-104.729 Y-28.347 Z24.000 I25.677 J8.009 F9000.000
G1 X-41.493 Y34.888 Z24.000 F9000.000
G2 X-42.108 Y36.041 Z24.000 I14.357 J8.401 F9000.000
G1 X-105.092 Y-26.942 Z24.000 F9000.000
G2 X-105.450 Y-25.533 Z24.000 I26.287 J7.430 F9000.000
G1 X-42.704 Y37.213 Z24.000 F9000.000
G1 X-43.269 Y38.415 Z24.000 F9000.000
G1 X-105.781 Y-24.096 Z24.000 F9000.000
G2 X-106.105 Y-22.653 Z24.000 I26.937 J6.813 F9000.000
G1 X-43.802 Y39.651 Z24.000 F9000.000
G2 X-44.312 Y40.909 Z24.000 I15.462 J6.997 F9000.000
G1 X-106.403 Y-21.182 Z24.000 F9000.000
G2 X-106.691 Y-19.703 Z24.000 I27.633 J6.154 F9000.000
G1 X-44.791 Y42.197 Z24.000 F9000.000
G2 X-45.231 Y43.525 Z24.000 I16.970 J6.360 F9000.000
G1 X-106.954 Y-18.198 Z24.000 F9000.000
G2 X-107.204 Y-16.680 Z24.000 I28.380 J5.445 F9000.000
G1 X-45.643 Y44.880 Z24.000 F9000.000
G2 X-46.026 Y46.265 Z24.000 I19.799 J6.224 F9000.000
G1 X-107.431 Y-15.140 Z24.000 F9000.000
G2 X-107.639 Y-13.580 Z24.000 I29.185 J4.682 F9000.000
G1 X-46.362 Y47.697 Z24.000 F9000.000
G2 X-46.661 Y49.166 Z24.000 I18.146 J4.457 F9000.000
G1 X-107.829 Y-12.002 Z24.000 F9000.000
G2 X-107.991 Y-10.397 Z24.000 I30.056 J3.856 F9000.000
G1 X-46.923 Y50.672 Z24.000 F9000.000
G2 X-47.144 Y52.218 Z24.000 I20.062 J3.657 F9000.000
G1 X-108.142 Y-8.780 Z24.000 F9000.000
G2 X-108.256 Y-7.126 Z24.000 I31.002 J2.959 F9000.000
G1 X-47.312 Y53.818 Z24.000 F9000.000
G2 X-47.425 Y55.473 Z24.000 I21.216 J2.278 F9000.000
G1 X-108.359 Y-5.461 Z24.000 F9000.000
G1 X-108.426 Y-3.761 Z24.000 F9000.000
G1 X-47.483 Y57.182 Z24.000 F9000.000
G2 X-47.481 Y58.953 Z24.000 I21.772 J0.850 F9000.000
G1 X-108.473 Y-2.039 Z24.000 F9000.000
G1 X-108.496 Y-0.295 Z24.000 F9000.000
G1 X-47.408 Y60.793 Z24.000 F9000.000
G2 X-47.256 Y62.713 Z24.000 I23.654 J-0.906 F9000.000
G1 X-108.480 Y1.489 Z24.000 F9000.000
G2 X-108.445 Y3.292 Z24.000 I33.861 J0.249 F9000.000
G1 X-47.012 Y64.725 Z24.000 F9000.000
G2 X-46.659 Y66.845 Z24.000 I26.119 J-3.257 F9000.000
G1 X-108.372 Y5.133 Z24.000 F9000.000
G2 X-108.264 Y7.009 Z24.000 I35.271 J-1.088 F9000.000
G1 X-46.176 Y69.096 Z24.000 F9000.000
G2 X-45.536 Y71.504 Z24.000 I29.792 J-6.633 F9000.000
G1 X-108.130 Y8.910 Z24.000 F9000.000
G1 X-107.948 Y10.860 Z24.000 F9000.000
G1 X-44.664 Y74.144 Z24.000 F9000.000
G2 X-43.494 Y77.081 Z24.000 I36.224 J-12.723 F9000.000
G1 X-107.727 Y12.849 Z24.000 F9000.000
G2 X-107.470 Y14.873 Z24.000 I38.135 J-3.804 F9000.000
G1 X-41.806 Y80.537 Z24.000 F9000.000
G2 X-38.970 Y85.141 Z24.000 I38.060 J-20.269 F9000.000
G1 X-107.164 Y16.947 Z24.000 F9000.000
G0 X-107.164 Y16.947 Z35.000
G0 X-67.278 Y85.117 Z35.000
G1 X-67.278 Y85.117 Z24.000 F3000.000
G1 X-85.117 Y67.278 Z24.000 F9000.000
G2 X-67.278 Y85.117 Z24.000 I84.681 J-66.842 F9000.000
G2 X-60.718 Y89.910 Z24.000 I62.539 J-78.722 F9000.000
G1 X-89.910 Y60.718 Z24.000 F9000.000
G3 X-93.015 Y55.845 Z24.000 I63.388 J-43.818 F9000.000
G1 X-55.845 Y93.015 Z24.000 F9000.000
G2 X-51.725 Y95.367 Z24.000 I37.387 J-60.701 F9000.000
G1 X-95.367 Y51.725 Z24.000 F9000.000
G3 X-97.270 Y48.054 Z24.000 I67.976 J-37.572 F9000.000
G1 X-48.054 Y97.270 Z24.000 F9000.000
G2 X-44.690 Y98.866 Z24.000 I30.186 J-59.275 F9000.000
G1 X-98.866 Y44.690 Z24.000 F9000.000
G3 X-100.209 Y41.580 Z24.000 I57.731 J-26.766 F9000.000
G1 X-41.580 Y100.209 Z24.000 F9000.000
G2 X-38.646 Y101.375 Z24.000 I23.354 J-54.496 F9000.000
G1 X-101.375 Y38.646 Z24.000 F9000.000
G3 X-102.393 Y35.860 Z24.000 I51.803 J-20.514 F9000.000
G1 X-35.860 Y102.393 Z24.000 F9000.000
G2 X-33.198 Y103.287 Z24.000 I18.119 J-49.532 F9000.000
G1 X-103.287 Y33.198 Z24.000 F9000.000
G3 X-104.076 Y30.642 Z24.000 I47.596 J-16.077 F9000.000
G1 X-30.642 Y104.076 Z24.000 F9000.000
G2 X-28.177 Y104.772 Z24.000 I14.319 J-45.930 F9000.000
G1 X-104.772 Y28.177 Z24.000 F9000.000
G1 X-105.389 Y25.794 Z24.000 F9000.000
G1 X-25.794 Y105.389 Z24.000 F9000.000
G2 X-23.495 Y105.919 Z24.000 I11.107 J-42.883 F9000.000
G1 X-105.919 Y23.495 Z24.000 F9000.000
G3 X-106.387 Y21.260 Z24.000 I41.746 J-9.907 F9000.000
G1 X-21.260 Y106.387 Z24.000 F9000.000
G2 X-19.079 Y106.800 Z24.000 I8.846 J-40.741 F9000.000
G1 X-106.800 Y19.079 Z24.000 F9000.000
G3 X-107.164 Y16.947 Z24.000 I39.847 J-7.903 F9000.000
G1 X-38.970 Y85.141 Z24.000 F9000.000
G2 X-27.101 Y97.010 Z24.000 I38.786 J-26.917 F9000.000
G1 X-16.947 Y107.164 Z24.000 F9000.000
G1 X-14.873 Y107.470 Z24.000 F9000.000
G1 X-22.543 Y99.800 Z24.000 F9000.000
G2 X-19.091 Y101.485 Z24.000 I17.037 J-30.541 F9000.000
G1 X-12.849 Y107.727 Z24.000 F9000.000
G2 X-10.860 Y107.948 Z24.000 I5.150 J-37.236 F9000.000
G1 X-16.142 Y102.666 Z24.000 F9000.000
G2 X-13.512 Y103.528 Z24.000 I11.795 J-31.552 F9000.000
G1 X-8.910 Y108.130 Z24.000 F9000.000
G2 X-7.009 Y108.264 Z24.000 I3.458 J-35.631 F9000.000
G1 X-11.089 Y104.183 Z24.000 F9000.000
G2 X-8.834 Y104.670 Z24.000 I7.881 J-31.020 F9000.000
G1 X-5.133 Y108.372 Z24.000 F9000.000
G1 X-3.292 Y108.445 Z24.000 F9000.000
G1 X-6.718 Y105.019 Z24.000 F9000.000
G2 X-4.707 Y105.262 Z24.000 I4.084 J-25.344 F9000.000
G1 X-1.489 Y108.480 Z24.000 F9000.000
G2 X0.295 Y108.496 Z24.000 I1.190 J-33.482 F9000.000
G1 X-2.786 Y105.415 Z24.000 F9000.000
G2 X-0.943 Y105.490 Z24.000 I2.366 J-35.427 F9000.000
G1 X2.039 Y108.473 Z24.000 F9000.000
G2 X3.761 Y108.426 Z24.000 I-0.006 J-32.348 F9000.000
G1 X0.824 Y105.490 Z24.000 F9000.000
G2 X2.528 Y105.426 Z24.000 I0.014 J-22.254 F9000.000
G1 X5.461 Y108.359 Z24.000 F9000.000
G2 X7.126 Y108.256 Z24.000 I-1.094 J-31.316 F9000.000
G1 X4.176 Y105.307 Z24.000 F9000.000
G2 X5.776 Y105.138 Z24.000 I-1.280 J-19.805 F9000.000
G1 X8.780 Y108.142 Z24.000 F9000.000
G1 X10.397 Y107.991 Z24.000 F9000.000
G1 X7.330 Y104.925 Z24.000 F9000.000
G1 X8.842 Y104.669 Z24.000 F9000.000
G1 X12.002 Y107.829 Z24.000 F9000.000
G1 X13.580 Y107.639 Z24.000 F9000.000
G1 X10.302 Y104.361 Z24.000 F9000.000
G2 X11.728 Y104.019 Z24.000 I-3.528 J-17.851 F9000.000
G1 X15.140 Y107.431 Z24.000 F9000.000
G1 X16.680 Y107.204 Z24.000 F9000.000
G1 X13.122 Y103.646 Z24.000 F9000.000
G1 X14.480 Y103.236 Z24.000 F9000.000
G1 X18.198 Y106.954 Z24.000 F9000.000
G1 X19.703 Y106.691 Z24.000 F9000.000
G1 X15.798 Y102.786 Z24.000 F9000.000
G2 X17.090 Y102.310 Z24.000 I-5.257 J-16.283 F9000.000
G1 X21.182 Y106.403 Z24.000 F9000.000
G1 X22.653 Y106.105 Z24.000 F9000.000
G1 X18.357 Y101.809 Z24.000 F9000.000
G2 X19.581 Y101.266 Z24.000 I-8.031 J-19.774 F9000.000
G1 X24.096 Y105.781 Z24.000 F9000.000
G1 X25.533 Y105.450 Z24.000 F9000.000
G1 X20.785 Y100.702 Z24.000 F9000.000
G2 X21.966 Y100.115 Z24.000 I-55.419 J-113.115 F9000.000
G1 X26.942 Y105.092 Z24.000 F9000.000
G1 X28.347 Y104.729 Z24.000 F9000.000
G1 X23.108 Y99.490 Z24.000 F9000.000
G2 X24.232 Y98.845 Z24.000 I-7.456 J-14.299 F9000.000
G1 X29.725 Y104.339 Z24.000 F9000.000
G1 X31.099 Y103.945 Z24.000 F9000.000
G1 X25.333 Y98.178 Z24.000 F9000.000
G2 X26.399 Y97.477 Z24.000 I-8.820 J-14.569 F9000.000
G1 X32.447 Y103.525 Z24.000 F9000.000
G1 X33.790 Y103.100 Z24.000 F9000.000
G1 X27.448 Y96.759 Z24.000 F9000.000
G1 X28.472 Y96.015 Z24.000 F9000.000
G1 X35.110 Y102.652 Z24.000 F9000.000
G1 X36.424 Y102.198 Z24.000 F9000.000
G1 X29.467 Y95.242 Z24.000 F9000.000
G2 X30.447 Y94.454 Z24.000 I-9.637 J-12.978 F9000.000
G1 X37.717 Y101.724 Z24.000 F9000.000
G1 X39.002 Y101.241 Z24.000 F9000.000
G1 X31.396 Y93.635 Z24.000 F9000.000
G2 X32.323 Y92.794 Z24.000 I-10.022 J-11.978 F9000.000
G1 X40.270 Y100.741 Z24.000 F9000.000
G1 X41.527 Y100.231 Z24.000 F9000.000
G1 X33.234 Y91.938 Z24.000 F9000.000
G2 X34.109 Y91.045 Z24.000 I-28.015 J-28.334 F9000.000
G1 X42.771 Y99.707 Z24.000 F9000.000
G1 X44.000 Y99.168 Z24.000 F9000.000
G1 X34.968 Y90.137 Z24.000 F9000.000
G1 X35.806 Y89.206 Z24.000 F9000.000
G1 X45.221 Y98.622 Z24.000 F9000.000
G1 X46.424 Y98.056 Z24.000 F9000.000
G1 X36.613 Y88.246 Z24.000 F9000.000
G2 X37.405 Y87.269 Z24.000 I-11.967 J-10.512 F9000.000
G1 X47.622 Y97.487 Z24.000 F9000.000
G1 X48.799 Y96.896 Z24.000 F9000.000
G1 X38.167 Y86.265 Z24.000 F9000.000
G2 X38.905 Y85.235 Z24.000 I-12.510 J-9.742 F9000.000
G1 X49.975 Y96.304 Z24.000 F9000.000
G2 X51.127 Y95.688 Z24.000 I-10.994 J-21.930 F9000.000
G1 X39.627 Y84.188 Z24.000 F9000.000
G1 X40.313 Y83.107 Z24.000 F9000.000
G1 X52.277 Y95.071 Z24.000 F9000.000
G2 X53.408 Y94.435 Z24.000 I-11.381 J-21.563 F9000.000
G1 X40.978 Y82.004 Z24.000 F9000.000
G2 X41.625 Y80.883 Z24.000 I-35.341 J-21.131 F9000.000
G1 X54.533 Y93.792 Z24.000 F9000.000
G2 X55.645 Y93.136 Z24.000 I-11.755 J-21.208 F9000.000
G1 X42.232 Y79.723 Z24.000 F9000.000
G2 X42.819 Y78.542 Z24.000 I-14.376 J-7.884 F9000.000
G1 X56.745 Y92.468 Z24.000 F9000.000
G2 X57.838 Y91.793 Z24.000 I-12.119 J-20.863 F9000.000
G1 X43.385 Y77.340 Z24.000 F9000.000
G2 X43.909 Y76.096 Z24.000 I-30.329 J-13.511 F9000.000
G1 X58.913 Y91.101 Z24.000 F9000.000
G2 X59.988 Y90.408 Z24.000 I-12.472 J-20.525 F9000.000
G1 X44.409 Y74.829 Z24.000 F9000.000
G2 X44.886 Y73.537 Z24.000 I-18.072 J-7.399 F9000.000
G1 X61.039 Y89.691 Z24.000 F9000.000
G1 X62.089 Y88.973 Z24.000 F9000.000
G1 X45.319 Y72.203 Z24.000 F9000.000
G2 X45.722 Y70.838 Z24.000 I-16.769 J-5.690 F9000.000
G1 X63.122 Y88.238 Z24.000 F9000.000
G1 X64.148 Y87.497 Z24.000 F9000.000
G1 X46.095 Y69.443 Z24.000 F9000.000
G1 X46.431 Y68.011 Z24.000 F9000.000
G1 X65.164 Y86.744 Z24.000 F9000.000
G1 X66.166 Y85.979 Z24.000 F9000.000
G1 X46.719 Y66.532 Z24.000 F9000.000
G2 X46.969 Y65.014 Z24.000 I-18.641 J-3.855 F9000.000
G1 X67.164 Y85.209 Z24.000 F9000.000
G1 X68.143 Y84.420 Z24.000 F9000.000
G1 X47.178 Y63.456 Z24.000 F9000.000
G2 X47.342 Y61.851 Z24.000 I-21.539 J-3.004 F9000.000
G1 X69.121 Y83.630 Z24.000 F9000.000
G2 X70.079 Y82.820 Z24.000 I-14.730 J-18.388 F9000.000
G1 X47.446 Y60.188 Z24.000 F9000.000
G2 X47.491 Y58.465 Z24.000 I-22.186 J-1.435 F9000.000
G1 X71.033 Y82.007 Z24.000 F9000.000
G2 X71.975 Y81.181 Z24.000 I-15.047 J-18.086 F9000.000
G1 X47.473 Y56.679 Z24.000 F9000.000
G2 X47.384 Y54.823 Z24.000 I-22.892 J0.164 F9000.000
G1 X72.906 Y80.344 Z24.000 F9000.000
G2 X73.830 Y79.501 Z24.000 I-15.363 J-17.788 F9000.000
G1 X47.214 Y52.885 Z24.000 F9000.000
G2 X46.950 Y50.853 Z24.000 I-25.033 J2.224 F9000.000
G1 X74.738 Y78.641 Z24.000 F9000.000
G1 X75.645 Y77.781 Z24.000 F9000.000
G1 X46.574 Y48.709 Z24.000 F9000.000
G2 X46.066 Y46.433 Z24.000 I-28.232 J5.109 F9000.000
G1 X76.530 Y76.898 Z24.000 F9000.000
G1 X77.414 Y76.014 Z24.000 F9000.000
G1 X45.378 Y43.978 Z24.000 F9000.000
G2 X44.451 Y41.283 Z24.000 I-33.235 J9.927 F9000.000
G1 X78.283 Y75.115 Z24.000 F9000.000
G1 X79.144 Y74.208 Z24.000 F9000.000
G1 X43.197 Y38.261 Z24.000 F9000.000
G2 X41.359 Y34.655 Z24.000 I-37.289 J16.737 F9000.000
G1 X79.996 Y73.293 Z24.000 F9000.000
G1 X80.833 Y72.362 Z24.000 F9000.000
G1 X38.043 Y29.571 Z24.000 F9000.000
G1 X38.043 Y29.571 Z21.000 F3000.000
G1 X80.833 Y72.362 Z21.000 F9000.000
G1 X79.996 Y73.293 Z21.000 F9000.000
G1 X41.359 Y34.655 Z21.000 F9000.000
G3 X43.197 Y38.261 Z21.000 I-35.451 J20.343 F9000.000
G1 X79.144 Y74.208 Z21.000 F9000.000
G1 X78.283 Y75.115 Z21.000 F9000.000
G1 X44.451 Y41.283 Z21.000 F9000.000
G3 X45.378 Y43.978 Z21.000 I-32.308 J12.622 F9000.000
G1 X77.414 Y76.014 Z21.000 F9000.000
G1 X76.530 Y76.898 Z21.000 F9000.000
G1 X46.066 Y46.433 Z21.000 F9000.000
G3 X46.574 Y48.709 Z21.000 I-27.723 J7.385 F9000.000
G1 X75.645 Y77.781 Z21.000 F9000.000
G1 X74.738 Y78.641 Z21.000 F9000.000
G1 X46.950 Y50.853 Z21.000 F9000.000
G3 X47.214 Y52.885 Z21.000 I-24.768 J4.256 F9000.000
G1 X73.830 Y79.501 Z21.000 F9000.000
G3 X72.906 Y80.344 Z21.000 I-16.288 J-16.945 F9000.000
G1 X47.384 Y54.823 Z21.000 F9000.000
G3 X47.473 Y56.679 Z21.000 I-22.803 J2.021 F9000.000
G1 X71.975 Y81.181 Z21.000 F9000.000
G3 X71.033 Y82.007 Z21.000 I-15.989 J-17.260 F9000.000
G1 X47.491 Y58.465 Z21.000 F9000.000
G3 X47.446 Y60.188 Z21.000 I-22.231 J0.289 F9000.000
G1 X70.079 Y82.820 Z21.000 F9000.000
G3 X69.121 Y83.630 Z21.000 I-15.688 J-17.578 F9000.000
G1 X47.342 Y61.851 Z21.000 F9000.000
G3 X47.178 Y63.456 Z21.000 I-21.703 J-1.400 F9000.000
G1 X68.143 Y84.420 Z21.000 F9000.000
G1 X67.164 Y85.209 Z21.000 F9000.000
G1 X46.969 Y65.014 Z21.000 F9000.000
G3 X46.719 Y66.532 Z21.000 I-18.891 J-2.338 F9000.000
G1 X66.166 Y85.979 Z21.000 F9000.000
G1 X65.164 Y86.744 Z21.000 F9000.000
G1 X46.431 Y68.011 Z21.000 F9000.000
G1 X46.095 Y69.443 Z21.000 F9000.000
G1 X64.148 Y87.497 Z21.000 F9000.000
G1 X63.122 Y88.238 Z21.000 F9000.000
G1 X45.722 Y70.838 Z21.000 F9000.000
G3 X45.319 Y72.203 Z21.000 I-17.172 J-4.325 F9000.000
G1 X62.089 Y88.973 Z21.000 F9000.000
G1 X61.039 Y89.691 Z21.000 F9000.000
G1 X44.886 Y73.537 Z21.000 F9000.000
G3 X44.409 Y74.829 Z21.000 I-18.549 J-6.108 F9000.000
G1 X59.988 Y90.408 Z21.000 F9000.000
G3 X58.913 Y91.101 Z21.000 I-13.547 J-19.832 F9000.000
G1 X43.909 Y76.096 Z21.000 F9000.000
G3 X43.385 Y77.340 Z21.000 I-30.853 J-12.267 F9000.000
G1 X57.838 Y91.793 Z21.000 F9000.000
G3 X56.745 Y92.468 Z21.000 I-13.212 J-20.188 F9000.000
G1 X42.819 Y78.542 Z21.000 F9000.000
G3 X42.232 Y79.723 Z21.000 I-14.963 J-6.703 F9000.000
G1 X55.645 Y93.136 Z21.000 F9000.000
G3 X54.533 Y93.792 Z21.000 I-12.868 J-20.552 F9000.000
G1 X41.625 Y80.883 Z21.000 F9000.000
G3 X40.978 Y82.004 Z21.000 I-35.987 J-20.010 F9000.000
G1 X53.408 Y94.435 Z21.000 F9000.000
G3 X52.277 Y95.071 Z21.000 I-12.512 J-20.927 F9000.000
G1 X40.313 Y83.107 Z21.000 F9000.000
G1 X39.627 Y84.188 Z21.000 F9000.000
G1 X51.127 Y95.688 Z21.000 F9000.000
G3 X49.975 Y96.304 Z21.000 I-12.145 J-21.314 F9000.000
G1 X38.905 Y85.235 Z21.000 F9000.000
G3 X38.167 Y86.265 Z21.000 I-13.248 J-8.712 F9000.000
G1 X48.799 Y96.896 Z21.000 F9000.000
G1 X47.622 Y97.487 Z21.000 F9000.000
G1 X37.405 Y87.269 Z21.000 F9000.000
G3 X36.613 Y88.246 Z21.000 I-12.758 J-9.536 F9000.000
G1 X46.424 Y98.056 Z21.000 F9000.000
G1 X45.221 Y98.622 Z21.000 F9000.000
G1 X35.806 Y89.206 Z21.000 F9000.000
G1 X34.968 Y90.137 Z21.000 F9000.000
G1 X44.000 Y99.168 Z21.000 F9000.000
G1 X42.771 Y99.707 Z21.000 F9000.000
G1 X34.109 Y91.045 Z21.000 F9000.000
G3 X33.234 Y91.938 Z21.000 I-28.890 J-27.441 F9000.000
G1 X41.527 Y100.231 Z21.000 F9000.000
G1 X40.270 Y100.741 Z21.000 F9000.000
G1 X32.323 Y92.794 Z21.000 F9000.000
G3 X31.396 Y93.635 Z21.000 I-10.949 J-11.137 F9000.000
G1 X39.002 Y101.241 Z21.000 F9000.000
G1 X37.717 Y101.724 Z21.000 F9000.000
G1 X30.447 Y94.454 Z21.000 F9000.000
G3 X29.467 Y95.242 Z21.000 I-10.616 J-12.189 F9000.000
G1 X36.424 Y102.198 Z21.000 F9000.000
G1 X35.110 Y102.652 Z21.000 F9000.000
G1 X28.472 Y96.015 Z21.000 F9000.000
G1 X27.448 Y96.759 Z21.000 F9000.000
G1 X33.790 Y103.100 Z21.000 F9000.000
G1 X32.447 Y103.525 Z21.000 F9000.000
G1 X26.399 Y97.477 Z21.000 F9000.000
G3 X25.333 Y98.178 Z21.000 I-9.886 J-13.867 F9000.000
G1 X31.099 Y103.945 Z21.000 F9000.000
G1 X29.725 Y104.339 Z21.000 F9000.000
G1 X24.232 Y98.845 Z21.000 F9000.000
G3 X23.108 Y99.490 Z21.000 I-8.580 J-13.654 F9000.000
G1 X28.347 Y104.729 Z21.000 F9000.000
G1 X26.942 Y105.092 Z21.000 F9000.000
G1 X21.966 Y100.115 Z21.000 F9000.000
G3 X20.785 Y100.702 Z21.000 I-56.600 J-112.529 F9000.000
G1 X25.533 Y105.450 Z21.000 F9000.000
G1 X24.096 Y105.781 Z21.000 F9000.000
G1 X19.581 Y101.266 Z21.000 F9000.000
G3 X18.357 Y101.809 Z21.000 I-9.256 J-19.231 F9000.000
G1 X22.653 Y106.105 Z21.000 F9000.000
G1 X21.182 Y106.403 Z21.000 F9000.000
G1 X17.090 Y102.310 Z21.000 F9000.000
G3 X15.798 Y102.786 Z21.000 I-6.549 J-15.808 F9000.000
G1 X19.703 Y106.691 Z21.000 F9000.000
G1 X18.198 Y106.954 Z21.000 F9000.000
G1 X14.480 Y103.236 Z21.000 F9000.000
G1 X13.122 Y103.646 Z21.000 F9000.000
G1 X16.680 Y107.204 Z21.000 F9000.000
G1 X15.140 Y107.431 Z21.000 F9000.000
G1 X11.728 Y104.019 Z21.000 F9000.000
G3 X10.302 Y104.361 Z21.000 I-4.954 J-17.509 F9000.000
G1 X13.580 Y107.639 Z21.000 F9000.000
G1 X12.002 Y107.829 Z21.000 F9000.000
G1 X8.842 Y104.669 Z21.000 F9000.000
G1 X7.330 Y104.925 Z21.000 F9000.000
G1 X10.397 Y107.991 Z21.000 F9000.000
G1 X8.780 Y108.142 Z21.000 F9000.000
G1 X5.776 Y105.138 Z21.000 F9000.000
G3 X4.176 Y105.307 Z21.000 I-2.879 J-19.636 F9000.000
G1 X7.126 Y108.256 Z21.000 F9000.000
G3 X5.461 Y108.359 Z21.000 I-2.759 J-31.213 F9000.000
G1 X2.528 Y105.426 Z21.000 F9000.000
G3 X0.824 Y105.490 Z21.000 I-1.690 J-22.189 F9000.000
G1 X3.761 Y108.426 Z21.000 F9000.000
G3 X2.039 Y108.473 Z21.000 I-1.728 J-32.301 F9000.000
G1 X-0.943 Y105.490 Z21.000 F9000.000
G3 X-2.786 Y105.415 Z21.000 I0.523 J-35.502 F9000.000
G1 X0.295 Y108.496 Z21.000 F9000.000
G3 X-1.489 Y108.480 Z21.000 I-0.593 J-33.498 F9000.000
G1 X-4.707 Y105.262 Z21.000 F9000.000
G3 X-6.718 Y105.019 Z21.000 I2.073 J-25.587 F9000.000
G1 X-3.292 Y108.445 Z21.000 F9000.000
G1 X-5.133 Y108.372 Z21.000 F9000.000
G1 X-8.834 Y104.670 Z21.000 F9000.000
G3 X-11.089 Y104.183 Z21.000 I5.626 J-31.507 F9000.000
G1 X-7.009 Y108.264 Z21.000 F9000.000
G3 X-8.910 Y108.130 Z21.000 I1.556 J-35.765 F9000.000
G1 X-13.512 Y103.528 Z21.000 F9000.000
G3 X-16.142 Y102.666 Z21.000 I9.166 J-32.413 F9000.000
G1 X-10.860 Y107.948 Z21.000 F9000.000
G3 X-12.849 Y107.727 Z21.000 I3.161 J-37.458 F9000.000
G1 X-19.091 Y101.485 Z21.000 F9000.000
G3 X-22.543 Y99.800 Z21.000 I13.585 J-32.225 F9000.000
G1 X-14.873 Y107.470 Z21.000 F9000.000
G1 X-16.947 Y107.164 Z21.000 F9000.000
G1 X-27.101 Y97.010 Z21.000 F9000.000
G3 X-38.970 Y85.141 Z21.000 I26.917 J-38.786 F9000.000
G1 X-107.164 Y16.947 Z21.000 F9000.000
G2 X-106.800 Y19.079 Z21.000 I40.211 J-5.771 F9000.000
G1 X-19.079 Y106.800 Z21.000 F9000.000
G3 X-21.260 Y106.387 Z21.000 I6.666 J-41.154 F9000.000
G1 X-106.387 Y21.260 Z21.000 F9000.000
G2 X-105.919 Y23.495 Z21.000 I42.214 J-7.671 F9000.000
G1 X-23.495 Y105.919 Z21.000 F9000.000
G3 X-25.794 Y105.389 Z21.000 I8.809 J-43.414 F9000.000
G1 X-105.389 Y25.794 Z21.000 F9000.000
G1 X-104.772 Y28.177 Z21.000 F9000.000
G1 X-28.177 Y104.772 Z21.000 F9000.000
G3 X-30.642 Y104.076 Z21.000 I11.854 J-46.627 F9000.000
G1 X-104.076 Y30.642 Z21.000 F9000.000
G2 X-103.287 Y33.198 Z21.000 I48.385 J-13.521 F9000.000
G1 X-33.198 Y103.287 Z21.000 F9000.000
G3 X-35.860 Y102.393 Z21.000 I15.457 J-50.426 F9000.000
G1 X-102.393 Y35.860 Z21.000 F9000.000
G2 X-101.375 Y38.646 Z21.000 I52.821 J-17.728 F9000.000
G1 X-38.646 Y101.375 Z21.000 F9000.000
G3 X-41.580 Y100.209 Z21.000 I20.421 J-55.662 F9000.000
G1 X-100.209 Y41.580 Z21.000 F9000.000
G2 X-98.866 Y44.690 Z21.000 I59.074 J-23.656 F9000.000
G1 X-44.690 Y98.866 Z21.000 F9000.000
G3 X-48.054 Y97.270 Z21.000 I26.822 J-60.871 F9000.000
G1 X-97.270 Y48.054 Z21.000 F9000.000
G2 X-95.367 Y51.725 Z21.000 I69.880 J-33.901 F9000.000
G1 X-51.725 Y95.367 Z21.000 F9000.000
G3 X-55.845 Y93.015 Z21.000 I33.267 J-63.053 F9000.000
G1 X-93.015 Y55.845 Z21.000 F9000.000
G2 X-89.910 Y60.718 Z21.000 I66.493 J-38.945 F9000.000
G1 X-60.718 Y89.910 Z21.000 F9000.000
G3 X-67.278 Y85.117 Z21.000 I55.979 J-83.515 F9000.000
G3 X-85.117 Y67.278 Z21.000 I66.842 J-84.681 F9000.000
G1 X-67.278 Y85.117 Z21.000 F9000.000
G0 X-67.278 Y85.117 Z35.000
G0 X-107.164 Y16.947 Z35.000
G1 X-107.164 Y16.947 Z21.000 F3000.000
G1 X-38.970 Y85.141 Z21.000 F9000.000
G3 X-41.806 Y80.537 Z21.000 I35.224 J-24.872 F9000.000
G1 X-107.470 Y14.873 Z21.000 F9000.000
G3 X-107.727 Y12.849 Z21.000 I37.879 J-5.828 F9000.000
G1 X-43.494 Y77.081 Z21.000 F9000.000
G3 X-44.664 Y74.144 Z21.000 I35.055 J-15.661 F9000.000
G1 X-107.948 Y10.860 Z21.000 F9000.000
G1 X-108.130 Y8.910 Z21.000 F9000.000
G1 X-45.536 Y71.504 Z21.000 F9000.000
G3 X-46.176 Y69.096 Z21.000 I29.152 J-9.041 F9000.000
G1 X-108.264 Y7.009 Z21.000 F9000.000
G3 X-108.372 Y5.133 Z21.000 I35.163 J-2.964 F9000.000
G1 X-46.659 Y66.845 Z21.000 F9000.000
G3 X-47.012 Y64.725 Z21.000 I25.766 J-5.378 F9000.000
G1 X-108.445 Y3.292 Z21.000 F9000.000
G3 X-108.480 Y1.489 Z21.000 I33.826 J-1.554 F9000.000
G1 X-47.256 Y62.713 Z21.000 F9000.000
G3 X-47.408 Y60.793 Z21.000 I23.502 J-2.826 F9000.000
G1 X-108.496 Y-0.295 Z21.000 F9000.000
G1 X-108.473 Y-2.039 Z21.000 F9000.000
G1 X-47.481 Y58.953 Z21.000 F9000.000
G3 X-47.483 Y57.182 Z21.000 I21.769 J-0.920 F9000.000
G1 X-108.426 Y-3.761 Z21.000 F9000.000
G1 X-108.359 Y-5.461 Z21.000 F9000.000
G1 X-47.425 Y55.473 Z21.000 F9000.000
G3 X-47.312 Y53.818 Z21.000 I21.329 J0.623 F9000.000
G1 X-108.256 Y-7.126 Z21.000 F9000.000
G3 X-108.142 Y-8.780 Z21.000 I31.116 J1.305 F9000.000
G1 X-47.144 Y52.218 Z21.000 F9000.000
G3 X-46.923 Y50.672 Z21.000 I20.283 J2.110 F9000.000
G1 X-107.991 Y-10.397 Z21.000 F9000.000
G3 X-107.829 Y-12.002 Z21.000 I30.219 J2.251 F9000.000
G1 X-46.661 Y49.166 Z21.000 F9000.000
G3 X-46.362 Y47.697 Z21.000 I18.445 J2.989 F9000.000
G1 X-107.639 Y-13.580 Z21.000 F9000.000
G3 X-107.431 Y-15.140 Z21.000 I29.393 J3.122 F9000.000
G1 X-46.026 Y46.265 Z21.000 F9000.000
G3 X-45.643 Y44.880 Z21.000 I20.182 J4.839 F9000.000
G1 X-107.204 Y-16.680 Z21.000 F9000.000
G3 X-106.954 Y-18.198 Z21.000 I28.630 J3.927 F9000.000
G1 X-45.231 Y43.525 Z21.000 F9000.000
G3 X-44.791 Y42.197 Z21.000 I17.410 J5.032 F9000.000
G1 X-106.691 Y-19.703 Z21.000 F9000.000
G3 X-106.403 Y-21.182 Z21.000 I27.922 J4.674 F9000.000
G1 X-44.312 Y40.909 Z21.000 F9000.000
G3 X-43.802 Y39.651 Z21.000 I15.972 J5.739 F9000.000
G1 X-106.105 Y-22.653 Z21.000 F9000.000
G3 X-105.781 Y-24.096 Z21.000 I27.262 J5.370 F9000.000
G1 X-43.269 Y38.415 Z21.000 F9000.000
G1 X-42.704 Y37.213 Z21.000 F9000.000
G1 X-105.450 Y-25.533 Z21.000 F9000.000
G3 X-105.092 Y-26.942 Z21.000 I26.645 J6.021 F9000.000
G1 X-42.108 Y36.041 Z21.000 F9000.000
G3 X-41.493 Y34.888 Z21.000 I14.972 J7.249 F9000.000
G1 X-104.729 Y-28.347 Z21.000 F9000.000
G3 X-104.339 Y-29.725 Z21.000 I26.066 J6.631 F9000.000
G1 X-40.846 Y33.767 Z21.000 F9000.000
G3 X-40.173 Y32.673 Z21.000 I14.020 J7.868 F9000.000
G1 X-103.945 Y-31.099 Z21.000 F9000.000
G3 X-103.525 Y-32.447 Z21.000 I25.522 J7.205 F9000.000
G1 X-39.482 Y31.596 Z21.000 F9000.000
G1 X-38.757 Y30.553 Z21.000 F9000.000
G1 X-103.100 Y-33.790 Z21.000 F9000.000
G3 X-102.652 Y-35.110 Z21.000 I25.008 J7.747 F9000.000
G1 X-38.012 Y29.531 Z21.000 F9000.000
G3 X-37.249 Y28.526 Z21.000 I96.352 J72.352 F9000.000
G1 X-102.198 Y-36.424 Z21.000 F9000.000
G3 X-101.724 Y-37.717 Z21.000 I24.521 J8.261 F9000.000
G1 X-36.450 Y27.557 Z21.000 F9000.000
G3 X-35.635 Y26.604 Z21.000 I12.303 J9.691 F9000.000
G1 X-101.241 Y-39.002 Z21.000 F9000.000
G3 X-100.741 Y-40.270 Z21.000 I24.058 J8.749 F9000.000
G1 X-34.798 Y25.674 Z21.000 F9000.000
G3 X-33.931 Y24.773 Z21.000 I11.918 J10.605 F9000.000
G1 X-100.231 Y-41.527 Z21.000 F9000.000
G3 X-99.707 Y-42.771 Z21.000 I23.617 J9.214 F9000.000
G1 X-33.048 Y23.888 Z21.000 F9000.000
G1 X-32.137 Y23.031 Z21.000 F9000.000
G1 X-99.168 Y-44.000 Z21.000 F9000.000
G3 X-98.622 Y-45.221 Z21.000 I23.195 J9.659 F9000.000
G1 X-31.202 Y22.198 Z21.000 F9000.000
G3 X-30.253 Y21.380 Z21.000 I18.653 J20.700 F9000.000
G1 X-98.056 Y-46.424 Z21.000 F9000.000
G3 X-97.487 Y-47.622 Z21.000 I22.792 J10.085 F9000.000
G1 X-29.266 Y20.598 Z21.000 F9000.000
G3 X-28.264 Y19.834 Z21.000 I10.026 J12.107 F9000.000
G1 X-96.896 Y-48.799 Z21.000 F9000.000
G1 X-96.304 Y-49.975 Z21.000 F9000.000
G1 X-27.240 Y19.090 Z21.000 F9000.000
G3 X-26.182 Y18.379 Z21.000 I9.874 J13.551 F9000.000
G1 X-95.688 Y-51.127 Z21.000 F9000.000
G1 X-95.071 Y-52.277 Z21.000 F9000.000
G1 X-25.108 Y17.686 Z21.000 F9000.000
G1 X-24.007 Y17.019 Z21.000 F9000.000
G1 X-94.435 Y-53.408 Z21.000 F9000.000
G1 X-93.792 Y-54.533 Z21.000 F9000.000
G1 X-22.876 Y16.383 Z21.000 F9000.000
G3 X-21.725 Y15.765 Z21.000 I8.369 J14.212 F9000.000
G1 X-93.136 Y-55.645 Z21.000 F9000.000
G1 X-92.468 Y-56.745 Z21.000 F9000.000
G1 X-20.544 Y15.179 Z21.000 F9000.000
G3 X-19.332 Y14.623 Z21.000 I7.588 J14.943 F9000.000
G1 X-91.793 Y-57.838 Z21.000 F9000.000
G1 X-91.101 Y-58.913 Z21.000 F9000.000
G1 X-18.098 Y14.089 Z21.000 F9000.000
G1 X-16.832 Y13.587 Z21.000 F9000.000
G1 X-90.408 Y-59.988 Z21.000 F9000.000
G1 X-89.691 Y-61.039 Z21.000 F9000.000
G1 X-15.531 Y13.121 Z21.000 F9000.000
G3 X-14.203 Y12.681 Z21.000 I6.140 J16.292 F9000.000
G1 X-88.973 Y-62.089 Z21.000 F9000.000
G3 X-88.238 Y-63.122 Z21.000 I19.756 J13.286 F9000.000
G1 X-12.845 Y12.271 Z21.000 F9000.000
G3 X-11.441 Y11.907 Z21.000 I6.025 J20.367 F9000.000
G1 X-87.497 Y-64.148 Z21.000 F9000.000
G3 X-86.744 Y-65.164 Z21.000 I19.439 J13.620 F9000.000
G1 X-10.005 Y11.576 Z21.000 F9000.000
G3 X-8.534 Y11.279 Z21.000 I4.450 J18.263 F9000.000
G1 X-85.979 Y-66.166 Z21.000 F9000.000
G3 X-85.209 Y-67.164 Z21.000 I19.128 J13.949 F9000.000
G1 X-7.022 Y11.023 Z21.000 F9000.000
G3 X-5.456 Y10.822 Z21.000 I3.659 J22.260 F9000.000
G1 X-84.420 Y-68.143 Z21.000 F9000.000
G1 X-83.630 Y-69.121 Z21.000 F9000.000
G1 X-3.844 Y10.666 Z21.000 F9000.000
G3 X-2.182 Y10.560 Z21.000 I2.135 J20.418 F9000.000
G1 X-82.820 Y-70.079 Z21.000 F9000.000
G1 X-82.007 Y-71.033 Z21.000 F9000.000
G1 X-0.464 Y10.510 Z21.000 F9000.000
G3 X1.317 Y10.523 Z21.000 I0.721 J22.366 F9000.000
G1 X-81.181 Y-71.975 Z21.000 F9000.000
G1 X-80.344 Y-72.906 Z21.000 F9000.000
G1 X3.170 Y10.609 Z21.000 F9000.000
G3 X5.107 Y10.778 Z21.000 I-1.264 J25.725 F9000.000
G1 X-79.501 Y-73.830 Z21.000 F9000.000
G1 X-78.641 Y-74.738 Z21.000 F9000.000
G1 X7.140 Y11.043 Z21.000 F9000.000
G3 X9.288 Y11.423 Z21.000 I-3.652 J26.893 F9000.000
G1 X-77.781 Y-75.645 Z21.000 F9000.000
G3 X-76.898 Y-76.530 Z21.000 I17.061 J16.130 F9000.000
G1 X11.574 Y11.941 Z21.000 F9000.000
G3 X14.028 Y12.628 Z21.000 I-7.139 J30.242 F9000.000
G1 X-76.014 Y-77.414 Z21.000 F9000.000
G3 X-75.115 Y-78.283 Z21.000 I16.764 J16.443 F9000.000
G1 X16.705 Y13.537 Z21.000 F9000.000
G3 X19.740 Y14.805 Z21.000 I-13.851 J37.437 F9000.000
G1 X-74.208 Y-79.144 Z21.000 F9000.000
G3 X-73.293 Y-79.996 Z21.000 I16.467 J16.756 F9000.000
G1 X23.343 Y16.639 Z21.000 F9000.000
G3 X28.415 Y19.944 Z21.000 I-21.650 J38.777 F9000.000
G1 X-72.362 Y-80.833 Z21.000 F9000.000
G3 X-71.430 Y-81.669 Z21.000 I16.169 J17.071 F9000.000
G1 X81.669 Y71.430 Z21.000 F9000.000
G1 X82.482 Y70.476 Z21.000 F9000.000
G1 X-70.476 Y-82.482 Z21.000 F9000.000
G1 X-69.521 Y-83.296 Z21.000 F9000.000
G1 X83.296 Y69.521 Z21.000 F9000.000
G2 X84.092 Y68.549 Z21.000 I-17.845 J-15.434 F9000.000
G1 X-68.549 Y-84.092 Z21.000 F9000.000
G1 X-67.571 Y-84.881 Z21.000 F9000.000
G1 X84.881 Y67.571 Z21.000 F9000.000
G2 X85.661 Y66.583 Z21.000 I-18.167 J-15.128 F9000.000
G1 X-66.583 Y-85.661 Z21.000 F9000.000
G1 X-65.580 Y-86.426 Z21.000 F9000.000
G1 X86.426 Y65.580 Z21.000 F9000.000
G2 X87.188 Y64.575 Z21.000 I-18.494 J-14.818 F9000.000
G1 X-64.575 Y-87.188 Z21.000 F9000.000
G1 X-63.549 Y-87.930 Z21.000 F9000.000
G1 X87.930 Y63.549 Z21.000 F9000.000
G1 X88.671 Y62.522 Z21.000 F9000.000
G1 X-62.522 Y-88.671 Z21.000 F9000.000
G3 X-61.476 Y-89.392 Z21.000 I14.060 J19.294 F9000.000
G1 X89.392 Y61.476 Z21.000 F9000.000
G1 X90.110 Y60.425 Z21.000 F9000.000
G1 X-60.425 Y-90.110 Z21.000 F9000.000
G3 X-59.360 Y-90.813 Z21.000 I13.734 J19.638 F9000.000
G1 X90.813 Y59.360 Z21.000 F9000.000
G1 X91.505 Y58.285 Z21.000 F9000.000
G1 X-58.285 Y-91.505 Z21.000 F9000.000
G3 X-57.202 Y-92.190 Z21.000 I13.401 J19.990 F9000.000
G1 X92.190 Y57.202 Z21.000 F9000.000
G1 X92.858 Y56.103 Z21.000 F9000.000
G1 X-56.103 Y-92.858 Z21.000 F9000.000
G3 X-55.001 Y-93.524 Z21.000 I13.058 J20.350 F9000.000
G1 X93.524 Y55.001 Z21.000 F9000.000
G1 X94.167 Y53.876 Z21.000 F9000.000
G1 X-53.876 Y-94.167 Z21.000 F9000.000
G1 X-52.751 Y-94.810 Z21.000 F9000.000
G1 X94.810 Y52.751 Z21.000 F9000.000
G2 X95.432 Y51.605 Z21.000 I-21.214 J-12.240 F9000.000
G1 X-51.605 Y-95.432 Z21.000 F9000.000
G1 X-50.454 Y-96.049 Z21.000 F9000.000
G1 X96.049 Y50.454 Z21.000 F9000.000
G2 X96.650 Y49.288 Z21.000 I-21.605 J-11.869 F9000.000
G1 X-49.288 Y-96.650 Z21.000 F9000.000
G1 X-48.111 Y-97.241 Z21.000 F9000.000
G1 X97.241 Y48.111 Z21.000 F9000.000
G2 X97.821 Y46.924 Z21.000 I-22.011 J-11.484 F9000.000
G1 X-46.924 Y-97.821 Z21.000 F9000.000
G1 X-45.721 Y-98.387 Z21.000 F9000.000
G1 X98.387 Y45.721 Z21.000 F9000.000
G2 X98.945 Y44.511 Z21.000 I-22.434 J-11.084 F9000.000
G1 X-44.511 Y-98.945 Z21.000 F9000.000
G1 X-43.282 Y-99.483 Z21.000 F9000.000
G1 X99.483 Y43.282 Z21.000 F9000.000
G2 X100.018 Y42.049 Z21.000 I-22.874 J-10.666 F9000.000
G1 X-42.049 Y-100.018 Z21.000 F9000.000
G1 X-40.792 Y-100.529 Z21.000 F9000.000
G1 X100.529 Y40.792 Z21.000 F9000.000
G1 X101.040 Y39.536 Z21.000 F9000.000
G1 X-39.536 Y-101.040 Z21.000 F9000.000
G3 X-38.251 Y-101.523 Z21.000 I9.718 J23.875 F9000.000
G1 X101.523 Y38.251 Z21.000 F9000.000
G1 X102.006 Y36.966 Z21.000 F9000.000
G1 X-36.966 Y-102.006 Z21.000 F9000.000
G3 X-35.656 Y-102.464 Z21.000 I9.248 J24.370 F9000.000
G1 X102.464 Y35.656 Z21.000 F9000.000
G1 X102.918 Y34.342 Z21.000 F9000.000
G1 X-34.342 Y-102.918 Z21.000 F9000.000
G3 X-33.005 Y-103.348 Z21.000 I8.752 J24.892 F9000.000
G1 X103.348 Y33.005 Z21.000 F9000.000
G1 X103.773 Y31.662 Z21.000 F9000.000
G1 X-31.662 Y-103.773 Z21.000 F9000.000
G3 X-30.296 Y-104.175 Z21.000 I8.230 J25.444 F9000.000
G1 X104.175 Y30.296 Z21.000 F9000.000
G1 X104.569 Y28.923 Z21.000 F9000.000
G1 X-28.923 Y-104.569 Z21.000 F9000.000
G3 X-27.526 Y-104.941 Z21.000 I7.675 J26.028 F9000.000
G1 X104.941 Y27.526 Z21.000 F9000.000
G1 X105.304 Y26.122 Z21.000 F9000.000
G1 X-26.122 Y-105.304 Z21.000 F9000.000
G3 X-24.693 Y-105.643 Z21.000 I7.086 J26.650 F9000.000
G1 X105.643 Y24.693 Z21.000 F9000.000
G1 X105.974 Y23.256 Z21.000 F9000.000
G1 X-23.256 Y-105.974 Z21.000 F9000.000
G3 X-21.794 Y-106.279 Z21.000 I6.458 J27.312 F9000.000
G1 X106.279 Y21.794 Z21.000 F9000.000
G1 X106.577 Y20.323 Z21.000 F9000.000
G1 X-20.323 Y-106.577 Z21.000 F9000.000
G3 X-18.824 Y-106.845 Z21.000 I5.785 J28.022 F9000.000
G1 X106.845 Y18.824 Z21.000 F9000.000
G1 X107.108 Y17.319 Z21.000 F9000.000
G1 X-17.319 Y-107.108 Z21.000 F9000.000
G3 X-15.780 Y-107.336 Z21.000 I5.063 J28.784 F9000.000
G1 X107.336 Y15.780 Z21.000 F9000.000
G2 X107.560 Y14.236 Z21.000 I-28.887 J-4.965 F9000.000
G1 X-14.236 Y-107.560 Z21.000 F9000.000
G1 X-12.658 Y-107.750 Z21.000 F9000.000
G1 X107.750 Y12.658 Z21.000 F9000.000
G2 X107.928 Y11.069 Z21.000 I-29.745 J-4.151 F9000.000
G1 X-11.069 Y-107.928 Z21.000 F9000.000
G1 X-9.452 Y-108.080 Z21.000 F9000.000
G1 X108.080 Y9.452 Z21.000 F9000.000
G2 X108.210 Y7.815 Z21.000 I-30.677 J-3.268 F9000.000
G1 X-7.815 Y-108.210 Z21.000 F9000.000
G1 X-6.157 Y-108.320 Z21.000 F9000.000
G1 X108.320 Y6.157 Z21.000 F9000.000
G2 X108.398 Y4.467 Z21.000 I-31.693 J-2.305 F9000.000
G1 X-4.467 Y-108.398 Z21.000 F9000.000
G3 X-2.764 Y-108.463 Z21.000 I2.067 J31.944 F9000.000
G1 X108.463 Y2.764 Z21.000 F9000.000
G1 X108.486 Y1.020 Z21.000 F9000.000
G1 X-1.020 Y-108.486 Z21.000 F9000.000
G3 X0.744 Y-108.490 Z21.000 I0.951 J33.121 F9000.000
G1 X108.490 Y-0.744 Z21.000 F9000.000
G1 X108.466 Y-2.536 Z21.000 F9000.000
G1 X2.536 Y-108.466 Z21.000 F9000.000
G3 X4.367 Y-108.402 Z21.000 I-0.282 J34.421 F9000.000
G1 X108.402 Y-4.367 Z21.000 F9000.000
G2 X108.316 Y-6.221 Z21.000 I-34.849 J0.688 F9000.000
G1 X6.221 Y-108.316 Z21.000 F9000.000
G1 X8.115 Y-108.190 Z21.000 F9000.000
G1 X108.190 Y-8.115 Z21.000 F9000.000
G2 X108.024 Y-10.049 Z21.000 I-36.396 J2.154 F9000.000
G1 X10.049 Y-108.024 Z21.000 F9000.000
G3 X12.013 Y-107.827 Z21.000 I-2.708 J36.979 F9000.000
G1 X107.827 Y-12.013 Z21.000 F9000.000
G1 X107.585 Y-14.023 Z21.000 F9000.000
G1 X14.023 Y-107.585 Z21.000 F9000.000
G3 X16.085 Y-107.291 Z21.000 I-4.486 J38.855 F9000.000
G1 X107.291 Y-16.085 Z21.000 F9000.000
G2 X106.956 Y-18.188 Z21.000 I-39.661 J5.250 F9000.000
G1 X18.188 Y-106.956 Z21.000 F9000.000
G3 X20.338 Y-106.574 Z21.000 I-6.103 J40.561 F9000.000
G1 X106.574 Y-20.338 Z21.000 F9000.000
G1 X106.125 Y-22.554 Z21.000 F9000.000
G1 X22.554 Y-106.125 Z21.000 F9000.000
G3 X24.837 Y-105.610 Z21.000 I-8.528 J43.118 F9000.000
G1 X105.610 Y-24.837 Z21.000 F9000.000
G2 X105.029 Y-27.186 Z21.000 I-44.399 J9.742 F9000.000
G1 X27.186 Y-105.029 Z21.000 F9000.000
G3 X29.611 Y-104.371 Z21.000 I-11.127 J45.860 F9000.000
G1 X104.371 Y-29.611 Z21.000 F9000.000
G2 X103.627 Y-32.124 Z21.000 I-47.541 J12.721 F9000.000
G1 X32.124 Y-103.627 Z21.000 F9000.000
G3 X34.737 Y-102.781 Z21.000 I-14.570 J49.491 F9000.000
G1 X102.781 Y-34.737 Z21.000 F9000.000
G2 X101.817 Y-37.469 Z21.000 I-51.778 J16.738 F9000.000
G1 X37.469 Y-101.817 Z21.000 F9000.000
G3 X40.342 Y-100.712 Z21.000 I-19.308 J54.488 F9000.000
G1 X100.712 Y-40.342 Z21.000 F9000.000
G2 X99.439 Y-43.383 Z21.000 I-57.742 J22.393 F9000.000
G1 X43.383 Y-99.439 Z21.000 F9000.000
G3 X46.630 Y-97.959 Z21.000 I-26.151 J61.705 F9000.000
G1 X97.959 Y-46.630 Z21.000 F9000.000
G2 X96.218 Y-50.139 Z21.000 I-64.121 J29.632 F9000.000
G1 X50.139 Y-96.218 Z21.000 F9000.000
G3 X54.066 Y-94.059 Z21.000 I-38.584 J74.818 F9000.000
G1 X94.059 Y-54.066 Z21.000 F9000.000
G2 X91.321 Y-58.572 Z21.000 I-66.628 J37.401 F9000.000
G1 X58.572 Y-91.321 Z21.000 F9000.000
G3 X64.204 Y-87.457 Z21.000 I-47.558 J75.350 F9000.000
G1 X87.457 Y-64.204 Z21.000 F9000.000
G2 X75.693 Y-77.735 Z21.000 I-86.492 J63.313 F9000.000
G1 X75.693 Y-77.735 Z18.000 F3000.000
G3 X87.457 Y-64.204 Z18.000 I-74.728 J76.845 F9000.000
G1 X64.204 Y-87.457 Z18.000 F9000.000
G2 X58.572 Y-91.321 Z18.000 I-53.190 J71.486 F9000.000
G1 X91.321 Y-58.572 Z18.000 F9000.000
G3 X94.059 Y-54.066 Z18.000 I-63.890 J41.907 F9000.000
G1 X54.066 Y-94.059 Z18.000 F9000.000
G2 X50.139 Y-96.218 Z18.000 I-42.511 J72.659 F9000.000
G1 X96.218 Y-50.139 Z18.000 F9000.000
G3 X97.959 Y-46.630 Z18.000 I-62.380 J33.141 F9000.000
G1 X46.630 Y-97.959 Z18.000 F9000.000
G2 X43.383 Y-99.439 Z18.000 I-29.398 J60.226 F9000.000
G1 X99.439 Y-43.383 Z18.000 F9000.000
G3 X100.712 Y-40.342 Z18.000 I-56.468 J25.435 F9000.000
G1 X40.342 Y-100.712 Z18.000 F9000.000
G2 X37.469 Y-101.817 Z18.000 I-22.181 J53.383 F9000.000
G1 X101.817 Y-37.469 Z18.000 F9000.000
G3 X102.781 Y-34.737 Z18.000 I-50.813 J19.470 F9000.000
G1 X34.737 Y-102.781 Z18.000 F9000.000
G2 X32.124 Y-103.627 Z18.000 I-17.184 J48.646 F9000.000
G1 X103.627 Y-32.124 Z18.000 F9000.000
G3 X104.371 Y-29.611 Z18.000 I-46.796 J15.233 F9000.000
G1 X29.611 Y-104.371 Z18.000 F9000.000
G2 X27.186 Y-105.029 Z18.000 I-13.552 J45.203 F9000.000
G1 X105.029 Y-27.186 Z18.000 F9000.000
G3 X105.610 Y-24.837 Z18.000 I-43.817 J12.091 F9000.000
G1 X24.837 Y-105.610 Z18.000 F9000.000
G2 X22.554 Y-106.125 Z18.000 I-10.811 J42.603 F9000.000
G1 X106.125 Y-22.554 Z18.000 F9000.000
G1 X106.574 Y-20.338 Z18.000 F9000.000
G1 X20.338 Y-106.574 Z18.000 F9000.000
G2 X18.188 Y-106.956 Z18.000 I-8.253 J40.178 F9000.000
G1 X106.956 Y-18.188 Z18.000 F9000.000
G3 X107.291 Y-16.085 Z18.000 I-39.325 J7.353 F9000.000
G1 X16.085 Y-107.291 Z18.000 F9000.000
G2 X14.023 Y-107.585 Z18.000 I-6.548 J38.561 F9000.000
G1 X107.585 Y-14.023 Z18.000 F9000.000
G1 X107.827 Y-12.013 Z18.000 F9000.000
G1 X12.013 Y-107.827 Z18.000 F9000.000
G2 X10.049 Y-108.024 Z18.000 I-4.672 J36.783 F9000.000
G1 X108.024 Y-10.049 Z18.000 F9000.000
G3 X108.190 Y-8.115 Z18.000 I-36.229 J4.088 F9000.000
G1 X8.115 Y-108.190 Z18.000 F9000.000
G1 X6.221 Y-108.316 Z18.000 F9000.000
G1 X108.316 Y-6.221 Z18.000 F9000.000
G3 X108.402 Y-4.367 Z18.000 I-34.763 J2.541 F9000.000
G1 X4.367 Y-108.402 Z18.000 F9000.000
G2 X2.536 Y-108.466 Z18.000 I-2.114 J34.357 F9000.000
G1 X108.466 Y-2.536 Z18.000 F9000.000
G1 X108.490 Y-0.744 Z18.000 F9000.000
G1 X0.744 Y-108.490 Z18.000 F9000.000
G2 X-1.020 Y-108.486 Z18.000 I-0.813 J33.124 F9000.000
G1 X108.486 Y1.020 Z18.000 F9000.000
G1 X108.463 Y2.764 Z18.000 F9000.000
G1 X-2.764 Y-108.463 Z18.000 F9000.000
G2 X-4.467 Y-108.398 Z18.000 I0.364 J32.008 F9000.000
G1 X108.398 Y4.467 Z18.000 F9000.000
G3 X108.320 Y6.157 Z18.000 I-31.770 J-0.615 F9000.000
G1 X-6.157 Y-108.320 Z18.000 F9000.000
G1 X-7.815 Y-108.210 Z18.000 F9000.000
G1 X108.210 Y7.815 Z18.000 F9000.000
G3 X108.080 Y9.452 Z18.000 I-30.807 J-1.631 F9000.000
G1 X-9.452 Y-108.080 Z18.000 F9000.000
G1 X-11.069 Y-107.928 Z18.000 F9000.000
G1 X107.928 Y11.069 Z18.000 F9000.000
G3 X107.750 Y12.658 Z18.000 I-29.924 J-2.562 F9000.000
G1 X-12.658 Y-107.750 Z18.000 F9000.000
G1 X-14.236 Y-107.560 Z18.000 F9000.000
G1 X107.560 Y14.236 Z18.000 F9000.000
G3 X107.336 Y15.780 Z18.000 I-29.110 J-3.421 F9000.000
G1 X-15.780 Y-107.336 Z18.000 F9000.000
G2 X-17.319 Y-107.108 Z18.000 I3.524 J29.012 F9000.000
G1 X107.108 Y17.319 Z18.000 F9000.000
G1 X106.845 Y18.824 Z18.000 F9000.000
G1 X-18.824 Y-106.845 Z18.000 F9000.000
G2 X-20.323 Y-106.577 Z18.000 I4.286 J28.290 F9000.000
G1 X106.577 Y20.323 Z18.000 F9000.000
G1 X106.279 Y21.794 Z18.000 F9000.000
G1 X-21.794 Y-106.279 Z18.000 F9000.000
G2 X-23.256 Y-105.974 Z18.000 I4.995 J27.617 F9000.000
G1 X105.974 Y23.256 Z18.000 F9000.000
G1 X105.643 Y24.693 Z18.000 F9000.000
G1 X-24.693 Y-105.643 Z18.000 F9000.000
G2 X-26.122 Y-105.304 Z18.000 I5.658 J26.989 F9000.000
G1 X105.304 Y26.122 Z18.000 F9000.000
G1 X104.941 Y27.526 Z18.000 F9000.000
G1 X-27.526 Y-104.941 Z18.000 F9000.000
G2 X-28.923 Y-104.569 Z18.000 I6.279 J26.400 F9000.000
G1 X104.569 Y28.923 Z18.000 F9000.000
G1 X104.175 Y30.296 Z18.000 F9000.000
G1 X-30.296 Y-104.175 Z18.000 F9000.000
G2 X-31.662 Y-103.773 Z18.000 I6.864 J25.846 F9000.000
G1 X103.773 Y31.662 Z18.000 F9000.000
G1 X103.348 Y33.005 Z18.000 F9000.000
G1 X-33.005 Y-103.348 Z18.000 F9000.000
G2 X-34.342 Y-102.918 Z18.000 I7.415 J25.323 F9000.000
G1 X102.918 Y34.342 Z18.000 F9000.000
G1 X102.464 Y35.656 Z18.000 F9000.000
G1 X-35.656 Y-102.464 Z18.000 F9000.000
G2 X-36.966 Y-102.006 Z18.000 I7.937 J24.828 F9000.000
G1 X102.006 Y36.966 Z18.000 F9000.000
G1 X101.523 Y38.251 Z18.000 F9000.000
G1 X-38.251 Y-101.523 Z18.000 F9000.000
G2 X-39.536 Y-101.040 Z18.000 I8.433 J24.358 F9000.000
G1 X101.040 Y39.536 Z18.000 F9000.000
G1 X100.529 Y40.792 Z18.000 F9000.000
G1 X-40.792 Y-100.529 Z18.000 F9000.000
G1 X-42.049 Y-100.018 Z18.000 F9000.000
G1 X100.018 Y42.049 Z18.000 F9000.000
G3 X99.483 Y43.282 Z18.000 I-23.409 J-9.434 F9000.000
G1 X-43.282 Y-99.483 Z18.000 F9000.000
G1 X-44.511 Y-98.945 Z18.000 F9000.000
G1 X98.945 Y44.511 Z18.000 F9000.000
G3 X98.387 Y45.721 Z18.000 I-22.992 J-9.874 F9000.000
G1 X-45.721 Y-98.387 Z18.000 F9000.000
G1 X-46.924 Y-97.821 Z18.000 F9000.000
G1 X97.821 Y46.924 Z18.000 F9000.000
G3 X97.241 Y48.111 Z18.000 I-22.591 J-10.296 F9000.000
G1 X-48.111 Y-97.241 Z18.000 F9000.000
G1 X-49.288 Y-96.650 Z18.000 F9000.000
G1 X96.650 Y49.288 Z18.000 F9000.000
G3 X96.049 Y50.454 Z18.000 I-22.206 J-10.702 F9000.000
G1 X-50.454 Y-96.049 Z18.000 F9000.000
G1 X-51.605 Y-95.432 Z18.000 F9000.000
G1 X95.432 Y51.605 Z18.000 F9000.000
G3 X94.810 Y52.751 Z18.000 I-21.835 J-11.094 F9000.000
G1 X-52.751 Y-94.810 Z18.000 F9000.000
G1 X-53.876 Y-94.167 Z18.000 F9000.000
G1 X94.167 Y53.876 Z18.000 F9000.000
G1 X93.524 Y55.001 Z18.000 F9000.000
G1 X-55.001 Y-93.524 Z18.000 F9000.000
G2 X-56.103 Y-92.858 Z18.000 I11.956 J21.017 F9000.000
G1 X92.858 Y56.103 Z18.000 F9000.000
G1 X92.190 Y57.202 Z18.000 F9000.000
G1 X-57.202 Y-92.190 Z18.000 F9000.000
G2 X-58.285 Y-91.505 Z18.000 I12.318 J20.675 F9000.000
G1 X91.505 Y58.285 Z18.000 F9000.000
G1 X90.813 Y59.360 Z18.000 F9000.000
G1 X-59.360 Y-90.813 Z18.000 F9000.000
G2 X-60.425 Y-90.110 Z18.000 I12.670 J20.341 F9000.000
G1 X90.110 Y60.425 Z18.000 F9000.000
G1 X89.392 Y61.476 Z18.000 F9000.000
G1 X-61.476 Y-89.392 Z18.000 F9000.000
G2 X-62.522 Y-88.671 Z18.000 I13.013 J20.015 F9000.000
G1 X88.671 Y62.522 Z18.000 F9000.000
G1 X87.930 Y63.549 Z18.000 F9000.000
G1 X-63.549 Y-87.930 Z18.000 F9000.000
G1 X-64.575 Y-87.188 Z18.000 F9000.000
G1 X87.188 Y64.575 Z18.000 F9000.000
G3 X86.426 Y65.580 Z18.000 I-19.257 J-13.813 F9000.000
G1 X-65.580 Y-86.426 Z18.000 F9000.000
G1 X-66.583 Y-85.661 Z18.000 F9000.000
G1 X85.661 Y66.583 Z18.000 F9000.000
G3 X84.881 Y67.571 Z18.000 I-18.947 J-14.140 F9000.000
G1 X-67.571 Y-84.881 Z18.000 F9000.000
G1 X-68.549 Y-84.092 Z18.000 F9000.000
G1 X84.092 Y68.549 Z18.000 F9000.000
G3 X83.296 Y69.521 Z18.000 I-18.641 J-14.463 F9000.000
G1 X-69.521 Y-83.296 Z18.000 F9000.000
G1 X-70.476 Y-82.482 Z18.000 F9000.000
G1 X82.482 Y70.476 Z18.000 F9000.000
G1 X81.669 Y71.430 Z18.000 F9000.000
G1 X-71.430 Y-81.669 Z18.000 F9000.000
G2 X-72.362 Y-80.833 Z18.000 I15.238 J17.908 F9000.000
G1 X28.415 Y19.944 Z18.000 F9000.000
G2 X23.343 Y16.639 Z18.000 I-26.722 J35.473 F9000.000
G1 X-73.293 Y-79.996 Z18.000 F9000.000
G2 X-74.208 Y-79.144 Z18.000 I15.552 J17.608 F9000.000
G1 X19.740 Y14.805 Z18.000 F9000.000
G2 X16.705 Y13.537 Z18.000 I-16.886 J36.169 F9000.000
G1 X-75.115 Y-78.283 Z18.000 F9000.000
G2 X-76.014 Y-77.414 Z18.000 I15.865 J17.311 F9000.000
G1 X14.028 Y12.628 Z18.000 F9000.000
G2 X11.574 Y11.941 Z18.000 I-9.594 J29.555 F9000.000
G1 X-76.898 Y-76.530 Z18.000 F9000.000
G2 X-77.781 Y-75.645 Z18.000 I16.178 J17.015 F9000.000
G1 X9.288 Y11.423 Z18.000 F9000.000
G2 X7.140 Y11.043 Z18.000 I-5.799 J26.513 F9000.000
G1 X-78.641 Y-74.738 Z18.000 F9000.000
G1 X-79.501 Y-73.830 Z18.000 F9000.000
G1 X5.107 Y10.778 Z18.000 F9000.000
G2 X3.170 Y10.609 Z18.000 I-3.201 J25.556 F9000.000
G1 X-80.344 Y-72.906 Z18.000 F9000.000
G1 X-81.181 Y-71.975 Z18.000 F9000.000
G1 X1.317 Y10.523 Z18.000 F9000.000
G2 X-0.464 Y10.510 Z18.000 I-1.060 J22.352 F9000.000
G1 X-82.007 Y-71.033 Z18.000 F9000.000
G1 X-82.820 Y-70.079 Z18.000 F9000.000
G1 X-2.182 Y10.560 Z18.000 F9000.000
G2 X-3.844 Y10.666 Z18.000 I0.473 J20.524 F9000.000
G1 X-83.630 Y-69.121 Z18.000 F9000.000
G1 X-84.420 Y-68.143 Z18.000 F9000.000
G1 X-5.456 Y10.822 Z18.000 F9000.000
G2 X-7.022 Y11.023 Z18.000 I2.092 J22.461 F9000.000
G1 X-85.209 Y-67.164 Z18.000 F9000.000
G2 X-85.979 Y-66.166 Z18.000 I18.359 J14.947 F9000.000
G1 X-8.534 Y11.279 Z18.000 F9000.000
G2 X-10.005 Y11.576 Z18.000 I2.979 J18.560 F9000.000
G1 X-86.744 Y-65.164 Z18.000 F9000.000
G2 X-87.497 Y-64.148 Z18.000 I18.687 J14.636 F9000.000
G1 X-11.441 Y11.907 Z18.000 F9000.000
G2 X-12.845 Y12.271 Z18.000 I4.621 J20.731 F9000.000
G1 X-88.238 Y-63.122 Z18.000 F9000.000
G2 X-88.973 Y-62.089 Z18.000 I19.021 J14.319 F9000.000
G1 X-14.203 Y12.681 Z18.000 F9000.000
G2 X-15.531 Y13.121 Z18.000 I4.813 J16.732 F9000.000
G1 X-89.691 Y-61.039 Z18.000 F9000.000
G1 X-90.408 Y-59.988 Z18.000 F9000.000
G1 X-16.832 Y13.587 Z18.000 F9000.000
G1 X-18.098 Y14.089 Z18.000 F9000.000
G1 X-91.101 Y-58.913 Z18.000 F9000.000
G1 X-91.793 Y-57.838 Z18.000 F9000.000
G1 X-19.332 Y14.623 Z18.000 F9000.000
G2 X-20.544 Y15.179 Z18.000 I6.376 J15.499 F9000.000
G1 X-92.468 Y-56.745 Z18.000 F9000.000
G1 X-93.136 Y-55.645 Z18.000 F9000.000
G1 X-21.725 Y15.765 Z18.000 F9000.000
G2 X-22.876 Y16.383 Z18.000 I7.218 J14.830 F9000.000
G1 X-93.792 Y-54.533 Z18.000 F9000.000
G1 X-94.435 Y-53.408 Z18.000 F9000.000
G1 X-24.007 Y17.019 Z18.000 F9000.000
G1 X-25.108 Y17.686 Z18.000 F9000.000
G1 X-95.071 Y-52.277 Z18.000 F9000.000
G1 X-95.688 Y-51.127 Z18.000 F9000.000
G1 X-26.182 Y18.379 Z18.000 F9000.000
G2 X-27.240 Y19.090 Z18.000 I8.817 J14.261 F9000.000
G1 X-96.304 Y-49.975 Z18.000 F9000.000
G1 X-96.896 Y-48.799 Z18.000 F9000.000
G1 X-28.264 Y19.834 Z18.000 F9000.000
G2 X-29.266 Y20.598 Z18.000 I9.023 J12.872 F9000.000
G1 X-97.487 Y-47.622 Z18.000 F9000.000
G2 X-98.056 Y-46.424 Z18.000 I22.223 J11.284 F9000.000
G1 X-30.253 Y21.380 Z18.000 F9000.000
G2 X-31.202 Y22.198 Z18.000 I17.703 J21.518 F9000.000
G1 X-98.622 Y-45.221 Z18.000 F9000.000
G2 X-99.168 Y-44.000 Z18.000 I22.649 J10.879 F9000.000
G1 X-32.137 Y23.031 Z18.000 F9000.000
G1 X-33.048 Y23.888 Z18.000 F9000.000
G1 X-99.707 Y-42.771 Z18.000 F9000.000
G2 X-100.231 Y-41.527 Z18.000 I23.093 J10.458 F9000.000
G1 X-33.931 Y24.773 Z18.000 F9000.000
G2 X-34.798 Y25.674 Z18.000 I11.051 J11.506 F9000.000
G1 X-100.741 Y-40.270 Z18.000 F9000.000
G2 X-101.241 Y-39.002 Z18.000 I23.558 J10.017 F9000.000
G1 X-35.635 Y26.604 Z18.000 F9000.000
G2 X-36.450 Y27.557 Z18.000 I11.488 J10.644 F9000.000
G1 X-101.724 Y-37.717 Z18.000 F9000.000
G2 X-102.198 Y-36.424 Z18.000 I24.047 J9.554 F9000.000
G1 X-37.249 Y28.526 Z18.000 F9000.000
G2 X-38.012 Y29.531 Z18.000 I95.590 J73.357 F9000.000
G1 X-102.652 Y-35.110 Z18.000 F9000.000
G2 X-103.100 Y-33.790 Z18.000 I24.560 J9.067 F9000.000
G1 X-38.757 Y30.553 Z18.000 F9000.000
G1 X-39.482 Y31.596 Z18.000 F9000.000
G1 X-103.525 Y-32.447 Z18.000 F9000.000
G2 X-103.945 Y-31.099 Z18.000 I25.103 J8.553 F9000.000
G1 X-40.173 Y32.673 Z18.000 F9000.000
G2 X-40.846 Y33.767 Z18.000 I13.346 J8.963 F9000.000
G1 X-104.339 Y-29.725 Z18.000 F9000.000
G2 X-104.729 Y-28.347 Z18.000 I25.677 J8.009 F9000.000
G1 X-41.493 Y34.888 Z18.000 F9000.000
G2 X-42.108 Y36.041 Z18.000 I14.357 J8.401 F9000.000
G1 X-105.092 Y-26.942 Z18.000 F9000.000
G2 X-105.450 Y-25.533 Z18.000 I26.287 J7.430 F9000.000
G1 X-42.704 Y37.213 Z18.000 F9000.000
G1 X-43.269 Y38.415 Z18.000 F9000.000
G1 X-105.781 Y-24.096 Z18.000 F9000.000
G2 X-106.105 Y-22.653 Z18.000 I26.937 J6.813 F9000.000
G1 X-43.802 Y39.651 Z18.000 F9000.000
G2 X-44.312 Y40.909 Z18.000 I15.462 J6.997 F9000.000
G1 X-106.403 Y-21.182 Z18.000 F9000.000
G2 X-106.691 Y-19.703 Z18.000 I27.633 J6.154 F9000.000
G1 X-44.791 Y42.197 Z18.000 F9000.000
G2 X-45.231 Y43.525 Z18.000 I16.970 J6.360 F9000.000
G1 X-106.954 Y-18.198 Z18.000 F9000.000
G2 X-107.204 Y-16.680 Z18.000 I28.380 J5.445 F9000.000
G1 X-45.643 Y44.880 Z18.000 F9000.000
G2 X-46.026 Y46.265 Z18.000 I19.799 J6.224 F9000.000
G1 X-107.431 Y-15.140 Z18.000 F9000.000
G2 X-107.639 Y-13.580 Z18.000 I29.185 J4.682 F9000.000
G1 X-46.362 Y47.697 Z18.000 F9000.000
G2 X-46.661 Y49.166 Z18.000 I18.146 J4.457 F9000.000
G1 X-107.829 Y-12.002 Z18.000 F9000.000
G2 X-107.991 Y-10.397 Z18.000 I30.056 J3.856 F9000.000
G1 X-46.923 Y50.672 Z18.000 F9000.000
G2 X-47.144 Y52.218 Z18.000 I20.062 J3.657 F9000.000
G1 X-108.142 Y-8.780 Z18.000 F9000.000
G2 X-108.256 Y-7.126 Z18.000 I31.002 J2.959 F9000.000
G1 X-47.312 Y53.818 Z18.000 F9000.000
G2 X-47.425 Y55.473 Z18.000 I21.216 J2.278 F9000.000
G1 X-108.359 Y-5.461 Z18.000 F9000.000
G1 X-108.426 Y-3.761 Z18.000 F9000.000
G1 X-47.483 Y57.182 Z18.000 F9000.000
G2 X-47.481 Y58.953 Z18.000 I21.772 J0.850 F9000.000
G1 X-108.473 Y-2.039 Z18.000 F9000.000
G1 X-108.496 Y-0.295 Z18.000 F9000.000
G1 X-47.408 Y60.793 Z18.000 F9000.000
G2 X-47.256 Y62.713 Z18.000 I23.654 J-0.906 F9000.000
G1 X-108.480 Y1.489 Z18.000 F9000.000
G2 X-108.445 Y3.292 Z18.000 I33.861 J0.249 F9000.000
G1 X-47.012 Y64.725 Z18.000 F9000.000
G2 X-46.659 Y66.845 Z18.000 I26.119 J-3.257 F9000.000
G1 X-108.372 Y5.133 Z18.000 F9000.000
G2 X-108.264 Y7.009 Z18.000 I35.271 J-1.088 F9000.000
G1 X-46.176 Y69.096 Z18.000 F9000.000
G2 X-45.536 Y71.504 Z18.000 I29.792 J-6.633 F9000.000
G1 X-108.130 Y8.910 Z18.000 F9000.000
G1 X-107.948 Y10.860 Z18.000 F9000.000
G1 X-44.664 Y74.144 Z18.000 F9000.000
G2 X-43.494 Y77.081 Z18.000 I36.224 J-12.723 F9000.000
G1 X-107.727 Y12.849 Z18.000 F9000.000
G2 X-107.470 Y14.873 Z18.000 I38.135 J-3.804 F9000.000
G1 X-41.806 Y80.537 Z18.000 F9000.000
G2 X-38.970 Y85.141 Z18.000 I38.060 J-20.269 F9000.000
G1 X-107.164 Y16.947 Z18.000 F9000.000
G0 X-107.164 Y16.947 Z35.000
G0 X-67.278 Y85.117 Z35.000
G1 X-67.278 Y85.117 Z18.000 F3000.000
G1 X-85.117 Y67.278 Z18.000 F9000.000
G2 X-67.278 Y85.117 Z18.000 I84.681 J-66.842 F9000.000
G2 X-60.718 Y89.910 Z18.000 I62.539 J-78.722 F9000.000
G1 X-89.910 Y60.718 Z18.000 F9000.000
G3 X-93.015 Y55.845 Z18.000 I63.388 J-43.818 F9000.000
G1 X-55.845 Y93.015 Z18.000 F9000.000
G2 X-51.725 Y95.367 Z18.000 I37.387 J-60.701 F9000.000
G1 X-95.367 Y51.725 Z18.000 F9000.000
G3 X-97.270 Y48.054 Z18.000 I67.976 J-37.572 F9000.000
G1 X-48.054 Y97.270 Z18.000 F9000.000
G2 X-44.690 Y98.866 Z18.000 I30.186 J-59.275 F9000.000
G1 X-98.866 Y44.690 Z18.000 F9000.000
G3 X-100.209 Y41.580 Z18.000 I57.731 J-26.766 F9000.000
G1 X-41.580 Y100.209 Z18.000 F9000.000
G2 X-38.646 Y101.375 Z18.000 I23.354 J-54.496 F9000.000
G1 X-101.375 Y38.646 Z18.000 F9000.000
G3 X-102.393 Y35.860 Z18.000 I51.803 J-20.514 F9000.000
G1 X-35.860 Y102.393 Z18.000 F9000.000
G2 X-33.198 Y103.287 Z18.000 I18.119 J-49.532 F9000.000
G1 X-103.287 Y33.198 Z18.000 F9000.000
G3 X-104.076 Y30.642 Z18.000 I47.596 J-16.077 F9000.000
G1 X-30.642 Y104.076 Z18.000 F9000.000
G2 X-28.177 Y104.772 Z18.000 I14.319 J-45.930 F9000.000
G1 X-104.772 Y28.177 Z18.000 F9000.000
G1 X-105.389 Y25.794 Z18.000 F9000.000
G1 X-25.794 Y105.389 Z18.000 F9000.000
G2 X-23.495 Y105.919 Z18.000 I11.107 J-42.883 F9000.000
G1 X-105.919 Y23.495 Z18.000 F9000.000
G3 X-106.387 Y21.260 Z18.000 I41.746 J-9.907 F9000.000
G1 X-21.260 Y106.387 Z18.000 F9000.000
G2 X-19.079 Y106.800 Z18.000 I8.846 J-40.741 F9000.000
G1 X-106.800 Y19.079 Z18.000 F9000.000
G3 X-107.164 Y16.947 Z18.000 I39.847 J-7.903 F9000.000
G1 X-38.970 Y85.141 Z18.000 F9000.000
G2 X-27.101 Y97.010 Z18.000 I38.786 J-26.917 F9000.000
G1 X-16.947 Y107.164 Z18.000 F9000.000
G1 X-14.873 Y107.470 Z18.000 F9000.000
G1 X-22.543 Y99.800 Z18.000 F9000.000
G2 X-19.091 Y101.485 Z18.000 I17.037 J-30.541 F9000.000
G1 X-12.849 Y107.727 Z18.000 F9000.000
G2 X-10.860 Y107.948 Z18.000 I5.150 J-37.236 F9000.000
G1 X-16.142 Y102.666 Z18.000 F9000.000
G2 X-13.512 Y103.528 Z18.000 I11.795 J-31.552 F9000.000
G1 X-8.910 Y108.130 Z18.000 F9000.000
G2 X-7.009 Y108.264 Z18.000 I3.458 J-35.631 F9000.000
G1 X-11.089 Y104.183 Z18.000 F9000.000
G2 X-8.834 Y104.670 Z18.000 I7.881 J-31.020 F9000.000
G1 X-5.133 Y108.372 Z18.000 F9000.000
G1 X-3.292 Y108.445 Z18.000 F9000.000
G1 X-6.718 Y105.019 Z18.000 F9000.000
G2 X-4.707 Y105.262 Z18.000 I4.084 J-25.344 F9000.000
G1 X-1.489 Y108.480 Z18.000 F9000.000
G2 X0.295 Y108.496 Z18.000 I1.190 J-33.482 F9000.000
G1 X-2.786 Y105.415 Z18.000 F9000.000
G2 X-0.943 Y105.490 Z18.000 I2.366 J-35.427 F9000.000
G1 X2.039 Y108.473 Z18.000 F9000.000
G2 X3.761 Y108.426 Z18.000 I-0.006 J-32.348 F9000.000
G1 X0.824 Y105.490 Z18.000 F9000.000
G2 X2.528 Y105.426 Z18.000 I0.014 J-22.254 F9000.000
G1 X5.461 Y108.359 Z18.000 F9000.000
G2 X7.126 Y108.256 Z18.000 I-1.094 J-31.316 F9000.000
G1 X4.176 Y105.307 Z18.000 F9000.000
G2 X5.776 Y105.138 Z18.000 I-1.280 J-19.805 F9000.000
G1 X8.780 Y108.142 Z18.000 F9000.000
G1 X10.397 Y107.991 Z18.000 F9000.000
G1 X7.330 Y104.925 Z18.000 F9000.000
G1 X8.842 Y104.669 Z18.000 F9000.000
G1 X12.002 Y107.829 Z18.000 F9000.000
G1 X13.580 Y107.639 Z18.000 F9000.000
G1 X10.302 Y104.361 Z18.000 F9000.000
G2 X11.728 Y104.019 Z18.000 I-3.528 J-17.851 F9000.000
G1 X15.140 Y107.431 Z18.000 F9000.000
G1 X16.680 Y107.204 Z18.000 F9000.000
G1 X13.122 Y103.646 Z18.000 F9000.000
G1 X14.480 Y103.236 Z18.000 F9000.000
G1 X18.198 Y106.954 Z18.000 F9000.000
G1 X19.703 Y106.691 Z18.000 F9000.000
G1 X15.798 Y102.786 Z18.000 F9000.000
G2 X17.090 Y102.310 Z18.000 I-5.257 J-16.283 F9000.000
G1 X21.182 Y106.403 Z18.000 F9000.000
G1 X22.653 Y106.105 Z18.000 F9000.000
G1 X18.357 Y101.809 Z18.000 F9000.000
G2 X19.581 Y101.266 Z18.000 I-8.031 J-19.774 F9000.000
G1 X24.096 Y105.781 Z18.000 F9000.000
G1 X25.533 Y105.450 Z18.000 F9000.000
G1 X20.785 Y100.702 Z18.000 F9000.000
G2 X21.966 Y100.115 Z18.000 I-55.419 J-113.115 F9000.000
G1 X26.942 Y105.092 Z18.000 F9000.000
G1 X28.347 Y104.729 Z18.000 F9000.000
G1 X23.108 Y99.490 Z18.000 F9000.000
G2 X24.232 Y98.845 Z18.000 I-7.456 J-14.299 F9000.000
G1 X29.725 Y104.339 Z18.000 F9000.000
G1 X31.099 Y103.945 Z18.000 F9000.000
G1 X25.333 Y98.178 Z18.000 F9000.000
G2 X26.399 Y97.477 Z18.000 I-8.820 J-14.569 F9000.000
G1 X32.447 Y103.525 Z18.000 F9000.000
G1 X33.790 Y103.100 Z18.000 F9000.000
G1 X27.448 Y96.759 Z18.000 F9000.000
G1 X28.472 Y96.015 Z18.000 F9000.000
G1 X35.110 Y102.652 Z18.000 F9000.000
G1 X36.424 Y102.198 Z18.000 F9000.000
G1 X29.467 Y95.242 Z18.000 F9000.000
G2 X30.447 Y94.454 Z18.000 I-9.637 J-12.978 F9000.000
G1 X37.717 Y101.724 Z18.000 F9000.000
G1 X39.002 Y101.241 Z18.000 F9000.000
G1 X31.396 Y93.635 Z18.000 F9000.000
G2 X32.323 Y92.794 Z18.000 I-10.022 J-11.978 F9000.000
G1 X40.270 Y100.741 Z18.000 F9000.000
G1 X41.527 Y100.231 Z18.000 F9000.000
G1 X33.234 Y91.938 Z18.000 F9000.000
G2 X34.109 Y91.045 Z18.000 I-28.015 J-28.334 F9000.000
G1 X42.771 Y99.707 Z18.000 F9000.000
G1 X44.000 Y99.168 Z18.000 F9000.000
G1 X34.968 Y90.137 Z18.000 F9000.000
G1 X35.806 Y89.206 Z18.000 F9000.000
G1 X45.221 Y98.622 Z18.000 F9000.000
G1 X46.424 Y98.056 Z18.000 F9000.000
G1 X36.613 Y88.246 Z18.000 F9000.000
G2 X37.405 Y87.269 Z18.000 I-11.967 J-10.512 F9000.000
G1 X47.622 Y97.487 Z18.000 F9000.000
G1 X48.799 Y96.896 Z18.000 F9000.000
G1 X38.167 Y86.265 Z18.000 F9000.000
G2 X38.905 Y85.235 Z18.000 I-12.510 J-9.742 F9000.000
G1 X49.975 Y96.304 Z18.000 F9000.000
G2 X51.127 Y95.688 Z18.000 I-10.994 J-21.930 F9000.000
G1 X39.627 Y84.188 Z18.000 F9000.000
G1 X40.313 Y83.107 Z18.000 F9000.000
G1 X52.277 Y95.071 Z18.000 F9000.000
G2 X53.408 Y94.435 Z18.000 I-11.381 J-21.563 F9000.000
G1 X40.978 Y82.004 Z18.000 F9000.000
G2 X41.625 Y80.883 Z18.000 I-35.341 J-21.131 F9000.000
G1 X54.533 Y93.792 Z18.000 F9000.000
G2 X55.645 Y93.136 Z18.000 I-11.755 J-21.208 F9000.000
G1 X42.232 Y79.723 Z18.000 F9000.000
G2 X42.819 Y78.542 Z18.000 I-14.376 J-7.884 F9000.000
G1 X56.745 Y92.468 Z18.000 F9000.000
G2 X57.838 Y91.793 Z18.000 I-12.119 J-20.863 F9000.000
G1 X43.385 Y77.340 Z18.000 F9000.000
G2 X43.909 Y76.096 Z18.000 I-30.329 J-13.511 F9000.000
G1 X58.913 Y91.101 Z18.000 F9000.000
G2 X59.988 Y90.408 Z18.000 I-12.472 J-20.525 F9000.000
G1 X44.409 Y74.829 Z18.000 F9000.000
G2 X44.886 Y73.537 Z18.000 I-18.072 J-7.399 F9000.000
G1 X61.039 Y89.691 Z18.000 F9000.000
G1 X62.089 Y88.973 Z18.000 F9000.000
G1 X45.319 Y72.203 Z18.000 F9000.000
G2 X45.722 Y70.838 Z18.000 I-16.769 J-5.690 F9000.000
G1 X63.122 Y88.238 Z18.000 F9000.000
G1 X64.148 Y87.497 Z18.000 F9000.000
G1 X46.095 Y69.443 Z18.000 F9000.000
G1 X46.431 Y68.011 Z18.000 F9000.000
G1 X65.164 Y86.744 Z18.000 F9000.000
G1 X66.166 Y85.979 Z18.000 F9000.000
G1 X46.719 Y66.532 Z18.000 F9000.000
G2 X46.969 Y65.014 Z18.000 I-18.641 J-3.855 F9000.000
G1 X67.164 Y85.209 Z18.000 F9000.000
G1 X68.143 Y84.420 Z18.000 F9000.000
G1 X47.178 Y63.456 Z18.000 F9000.000
G2 X47.342 Y61.851 Z18.000 I-21.539 J-3.004 F9000.000
G1 X69.121 Y83.630 Z18.000 F9000.000
G2 X70.079 Y82.820 Z18.000 I-14.730 J-18.388 F9000.000
G1 X47.446 Y60.188 Z18.000 F9000.000
G2 X47.491 Y58.465 Z18.000 I-22.186 J-1.435 F9000.000
G1 X71.033 Y82.007 Z18.000 F9000.000
G2 X71.975 Y81.181 Z18.000 I-15.047 J-18.086 F9000.000
G1 X47.473 Y56.679 Z18.000 F9000.000
G2 X47.384 Y54.823 Z18.000 I-22.892 J0.164 F9000.000
G1 X72.906 Y80.344 Z18.000 F9000.000
G2 X73.830 Y79.501 Z18.000 I-15.363 J-17.788 F9000.000
G1 X47.214 Y52.885 Z18.000 F9000.000
G2 X46.950 Y50.853 Z18.000 I-25.033 J2.224 F9000.000
G1 X74.738 Y78.641 Z18.000 F9000.000
G1 X75.645 Y77.781 Z18.000 F9000.000
G1 X46.574 Y48.709 Z18.000 F9000.000
G2 X46.066 Y46.433 Z18.000 I-28.232 J5.109 F9000.000
G1 X76.530 Y76.898 Z18.000 F9000.000
G1 X77.414 Y76.014 Z18.000 F9000.000
G1 X45.378 Y43.978 Z18.000 F9000.000
G2 X44.451 Y41.283 Z18.000 I-33.235 J9.927 F9000.000
G1 X78.283 Y75.115 Z18.000 F9000.000
G1 X79.144 Y74.208 Z18.000 F9000.000
G1 X43.197 Y38.261 Z18.000 F9000.000
G2 X41.359 Y34.655 Z18.000 I-37.289 J16.737 F9000.000
G1 X79.996 Y73.293 Z18.000 F9000.000
G1 X80.833 Y72.362 Z18.000 F9000.000
G1 X38.043 Y29.571 Z18.000 F9000.000
G1 X38.043 Y29.571 Z15.000 F3000.000
G1 X80.833 Y72.362 Z15.000 F9000.000
G1 X79.996 Y73.293 Z15.000 F9000.000
G1 X41.359 Y34.655 Z15.000 F9000.000
G3 X43.197 Y38.261 Z15.000 I-35.451 J20.343 F9000.000
G1 X79.144 Y74.208 Z15.000 F9000.000
G1 X78.283 Y75.115 Z15.000 F9000.000
G1 X44.451 Y41.283 Z15.000 F9000.000
G3 X45.378 Y43.978 Z15.000 I-32.308 J12.622 F9000.000
G1 X77.414 Y76.014 Z15.000 F9000.000
G1 X76.530 Y76.898 Z15.000 F9000.000
G1 X46.066 Y46.433 Z15.000 F9000.000
G3 X46.574 Y48.709 Z15.000 I-27.723 J7.385 F9000.000
G1 X75.645 Y77.781 Z15.000 F9000.000
G1 X74.738 Y78.641 Z15.000 F9000.000
G1 X46.950 Y50.853 Z15.000 F9000.000
G3 X47.214 Y52.885 Z15.000 I-24.768 J4.256 F9000.000
G1 X73.830 Y79.501 Z15.000 F9000.000
G3 X72.906 Y80.344 Z15.000 I-16.288 J-16.945 F9000.000
G1 X47.384 Y54.823 Z15.000 F9000.000
G3 X47.473 Y56.679 Z15.000 I-22.803 J2.021 F9000.000
G1 X71.975 Y81.181 Z15.000 F9000.000
G3 X71.033 Y82.007 Z15.000 I-15.989 J-17.260 F9000.000
G1 X47.491 Y58.465 Z15.000 F9000.000
G3 X47.446 Y60.188 Z15.000 I-22.231 J0.289 F9000.000
G1 X70.079 Y82.820 Z15.000 F9000.000
G3 X69.121 Y83.630 Z15.000 I-15.688 J-17.578 F9000.000
G1 X47.342 Y61.851 Z15.000 F9000.000
G3 X47.178 Y63.456 Z15.000 I-21.703 J-1.400 F9000.000
G1 X68.143 Y84.420 Z15.000 F9000.000
G1 X67.164 Y85.209 Z15.000 F9000.000
G1 X46.969 Y65.014 Z15.000 F9000.000
G3 X46.719 Y66.532 Z15.000 I-18.891 J-2.338 F9000.000
G1 X66.166 Y85.979 Z15.000 F9000.000
G1 X65.164 Y86.744 Z15.000 F9000.000
G1 X46.431 Y68.011 Z15.000 F9000.000
G1 X46.095 Y69.443 Z15.000 F9000.000
G1 X64.148 Y87.497 Z15.000 F9000.000
G1 X63.122 Y88.238 Z15.000 F9000.000
G1 X45.722 Y70.838 Z15.000 F9000.000
G3 X45.319 Y72.203 Z15.000 I-17.172 J-4.325 F9000.000
G1 X62.089 Y88.973 Z15.000 F9000.000
G1 X61.039 Y89.691 Z15.000 F9000.000
G1 X44.886 Y73.537 Z15.000 F9000.000
G3 X44.409 Y74.829 Z15.000 I-18.549 J-6.108 F9000.000
G1 X59.988 Y90.408 Z15.000 F9000.000
G3 X58.913 Y91.101 Z15.000 I-13.547 J-19.832 F9000.000
G1 X43.909 Y76.096 Z15.000 F9000.000
G3 X43.385 Y77.340 Z15.000 I-30.853 J-12.267 F9000.000
G1 X57.838 Y91.793 Z15.000 F9000.000
G3 X56.745 Y92.468 Z15.000 I-13.212 J-20.188 F9000.000
G1 X42.819 Y78.542 Z15.000 F9000.000
G3 X42.232 Y79.723 Z15.000 I-14.963 J-6.703 F9000.000
G1 X55.645 Y93.136 Z15.000 F9000.000
G3 X54.533 Y93.792 Z15.000 I-12.868 J-20.552 F9000.000
G1 X41.625 Y80.883 Z15.000 F9000.000
G3 X40.978 Y82.004 Z15.000 I-35.987 J-20.010 F9000.000
G1 X53.408 Y94.435 Z15.000 F9000.000
G3 X52.277 Y95.071 Z15.000 I-12.512 J-20.927 F9000.000
G1 X40.313 Y83.107 Z15.000 F9000.000
G1 X39.627 Y84.188 Z15.000 F9000.000
G1 X51.127 Y95.688 Z15.000 F9000.000
G3 X49.975 Y96.304 Z15.000 I-12.145 J-21.314 F9000.000
G1 X38.905 Y85.235 Z15.000 F9000.000
G3 X38.167 Y86.265 Z15.000 I-13.248 J-8.712 F9000.000
G1 X48.799 Y96.896 Z15.000 F9000.000
G1 X47.622 Y97.487 Z15.000 F9000.000
G1 X37.405 Y87.269 Z15.000 F9000.000
G3 X36.613 Y88.246 Z15.000 I-12.758 J-9.536 F9000.000
G1 X46.424 Y98.056 Z15.000 F9000.000
G1 X45.221 Y98.622 Z15.000 F9000.000
G1 X35.806 Y89.206 Z15.000 F9000.000
G1 X34.968 Y90.137 Z15.000 F9000.000
G1 X44.000 Y99.168 Z15.000 F9000.000
G1 X42.771 Y99.707 Z15.000 F9000.000
G1 X34.109 Y91.045 Z15.000 F9000.000
G3 X33.234 Y91.938 Z15.000 I-28.890 J-27.441 F9000.000
G1 X41.527 Y100.231 Z15.000 F9000.000
G1 X40.270 Y100.741 Z15.000 F9000.000
G1 X32.323 Y92.794 Z15.000 F9000.000
G3 X31.396 Y93.635 Z15.000 I-10.949 J-11.137 F9000.000
G1 X39.002 Y101.241 Z15.000 F9000.000
G1 X37.717 Y101.724 Z15.000 F9000.000
G1 X30.447 Y94.454 Z15.000 F9000.000
G3 X29.467 Y95.242 Z15.000 I-10.616 J-12.189 F9000.000
G1 X36.424 Y102.198 Z15.000 F9000.000
G1 X35.110 Y102.652 Z15.000 F9000.000
G1 X28.472 Y96.015 Z15.000 F9000.000
G1 X27.448 Y96.759 Z15.000 F9000.000
G1 X33.790 Y103.100 Z15.000 F9000.000
G1 X32.447 Y103.525 Z15.000 F9000.000
G1 X26.399 Y97.477 Z15.000 F9000.000
G3 X25.333 Y98.178 Z15.000 I-9.886 J-13.867 F9000.000
G1 X31.099 Y103.945 Z15.000 F9000.000
G1 X29.725 Y104.339 Z15.000 F9000.000
G1 X24.232 Y98.845 Z15.000 F9000.000
G3 X23.108 Y99.490 Z15.000 I-8.580 J-13.654 F9000.000
G1 X28.347 Y104.729 Z15.000 F9000.000
G1 X26.942 Y105.092 Z15.000 F9000.000
G1 X21.966 Y100.115 Z15.000 F9000.000
G3 X20.785 Y100.702 Z15.000 I-56.600 J-112.529 F9000.000
G1 X25.533 Y105.450 Z15.000 F9000.000
G1 X24.096 Y105.781 Z15.000 F9000.000
G1 X19.581 Y101.266 Z15.000 F9000.000
G3 X18.357 Y101.809 Z15.000 I-9.256 J-19.231 F9000.000
G1 X22.653 Y106.105 Z15.000 F9000.000
G1 X21.182 Y106.403 Z15.000 F9000.000
G1 X17.090 Y102.310 Z15.000 F9000.000
G3 X15.798 Y102.786 Z15.000 I-6.549 J-15.808 F9000.000
G1 X19.703 Y106.691 Z15.000 F9000.000
G1 X18.198 Y106.954 Z15.000 F9000.000
G1 X14.480 Y103.236 Z15.000 F9000.000
G1 X13.122 Y103.646 Z15.000 F9000.000
G1 X16.680 Y107.204 Z15.000 F9000.000
G1 X15.140 Y107.431 Z15.000 F9000.000
G1 X11.728 Y104.019 Z15.000 F9000.000
G3 X10.302 Y104.361 Z15.000 I-4.954 J-17.509 F9000.000
G1 X13.580 Y107.639 Z15.000 F9000.000
G1 X12.002 Y107.829 Z15.000 F9000.000
G1 X8.842 Y104.669 Z15.000 F9000.000
G1 X7.330 Y104.925 Z15.000 F9000.000
G1 X10.397 Y107.991 Z15.000 F9000.000
G1 X8.780 Y108.142 Z15.000 F9000.000
G1 X5.776 Y105.138 Z15.000 F9000.000
G3 X4.176 Y105.307 Z15.000 I-2.879 J-19.636 F9000.000
G1 X7.126 Y108.256 Z15.000 F9000.000
G3 X5.461 Y108.359 Z15.000 I-2.759 J-31.213 F9000.000
G1 X2.528 Y105.426 Z15.000 F9000.000
G3 X0.824 Y105.490 Z15.000 I-1.690 J-22.189 F9000.000
G1 X3.761 Y108.426 Z15.000 F9000.000
G3 X2.039 Y108.473 Z15.000 I-1.728 J-32.301 F9000.000
G1 X-0.943 Y105.490 Z15.000 F9000.000
G3 X-2.786 Y105.415 Z15.000 I0.523 J-35.502 F9000.000
G1 X0.295 Y108.496 Z15.000 F9000.000
G3 X-1.489 Y108.480 Z15.000 I-0.593 J-33.498 F9000.000
G1 X-4.707 Y105.262 Z15.000 F9000.000
G3 X-6.718 Y105.019 Z15.000 I2.073 J-25.587 F9000.000
G1 X-3.292 Y108.445 Z15.000 F9000.000
G1 X-5.133 Y108.372 Z15.000 F9000.000
G1 X-8.834 Y104.670 Z15.000 F9000.000
G3 X-11.089 Y104.183 Z15.000 I5.626 J-31.507 F9000.000
G1 X-7.009 Y108.264 Z15.000 F9000.000
G3 X-8.910 Y108.130 Z15.000 I1.556 J-35.765 F9000.000
G1 X-13.512 Y103.528 Z15.000 F9000.000
G3 X-16.142 Y102.666 Z15.000 I9.166 J-32.413 F9000.000
G1 X-10.860 Y107.948 Z15.000 F9000.000
G3 X-12.849 Y107.727 Z15.000 I3.161 J-37.458 F9000.000
G1 X-19.091 Y101.485 Z15.000 F9000.000
G3 X-22.543 Y99.800 Z15.000 I13.585 J-32.225 F9000.000
G1 X-14.873 Y107.470 Z15.000 F9000.000
G1 X-16.947 Y107.164 Z15.000 F9000.000
G1 X-27.101 Y97.010 Z15.000 F9000.000
G3 X-38.970 Y85.141 Z15.000 I26.917 J-38.786 F9000.000
G1 X-107.164 Y16.947 Z15.000 F9000.000
G2 X-106.800 Y19.079 Z15.000 I40.211 J-5.771 F9000.000
G1 X-19.079 Y106.800 Z15.000 F9000.000
G3 X-21.260 Y106.387 Z15.000 I6.666 J-41.154 F9000.000
G1 X-106.387 Y21.260 Z15.000 F9000.000
G2 X-105.919 Y23.495 Z15.000 I42.214 J-7.671 F9000.000
G1 X-23.495 Y105.919 Z15.000 F9000.000
G3 X-25.794 Y105.389 Z15.000 I8.809 J-43.414 F9000.000
G1 X-105.389 Y25.794 Z15.000 F9000.000
G1 X-104.772 Y28.177 Z15.000 F9000.000
G1 X-28.177 Y104.772 Z15.000 F9000.000
G3 X-30.642 Y104.076 Z15.000 I11.854 J-46.627 F9000.000
G1 X-104.076 Y30.642 Z15.000 F9000.000
G2 X-103.287 Y33.198 Z15.000 I48.385 J-13.521 F9000.000
G1 X-33.198 Y103.287 Z15.000 F9000.000
G3 X-35.860 Y102.393 Z15.000 I15.457 J-50.426 F9000.000
G1 X-102.393 Y35.860 Z15.000 F9000.000
G2 X-101.375 Y38.646 Z15.000 I52.821 J-17.728 F9000.000
G1 X-38.646 Y101.375 Z15.000 F9000.000
G3 X-41.580 Y100.209 Z15.000 I20.421 J-55.662 F9000.000
G1 X-100.209 Y41.580 Z15.000 F9000.000
G2 X-98.866 Y44.690 Z15.000 I59.074 J-23.656 F9000.000
G1 X-44.690 Y98.866 Z15.000 F9000.000
G3 X-48.054 Y97.270 Z15.000 I26.822 J-60.871 F9000.000
G1 X-97.270 Y48.054 Z15.000 F9000.000
G2 X-95.367 Y51.725 Z15.000 I69.880 J-33.901 F9000.000
G1 X-51.725 Y95.367 Z15.000 F9000.000
G3 X-55.845 Y93.015 Z15.000 I33.267 J-63.053 F9000.000
G1 X-93.015 Y55.845 Z15.000 F9000.000
G2 X-89.910 Y60.718 Z15.000 I66.493 J-38.945 F9000.000
G1 X-60.718 Y89.910 Z15.000 F9000.000
G3 X-67.278 Y85.117 Z15.000 I55.979 J-83.515 F9000.000
G3 X-85.117 Y67.278 Z15.000 I66.842 J-84.681 F9000.000
G1 X-67.278 Y85.117 Z15.000 F9000.000
